;FLAVOR:Marlin
;TIME:21960
;Filament used: 13.5417m
;Layer height: 0.2
;MINX:71.5
;MINY:53.706
;MINZ:0.2
;MAXX:163.5
;MAXY:140.386
;MAXZ:41
;Generated with Cura_SteamEngine 5.0.0
M140 S50
M105
M190 S50
M104 S200
M105
M109 S200
M82 ;absolute extrusion mode
; Ender 3 Custom Start G-code
G92 E0 ; Reset Extruder
G28 ; Home all axes
G1 Z2.0 F3000 ; Move Z Axis up little to prevent scratching of Heat Bed
G1 X0.1 Y20 Z0.3 F5000.0 ; Move to start position
G1 X0.1 Y200.0 Z0.3 F1500.0 E15 ; Draw the first line
G1 X0.4 Y200.0 Z0.3 F5000.0 ; Move to side a little
G1 X0.4 Y20 Z0.3 F1500.0 E30 ; Draw the second line
G92 E0 ; Reset Extruder
G1 Z2.0 F3000 ; Move Z Axis up little to prevent scratching of Heat Bed
G1 X5 Y20 Z0.3 F5000.0 ; Move over to prevent blob squish
G92 E0
G92 E0
G1 F2700 E-5
;LAYER_COUNT:205
;LAYER:0
M107
G0 F6000 X74.078 Y57.651 Z0.2
G0 X71.501 Y65.215
;TYPE:SKIRT
G1 F2700 E0
G1 F1200 X71.511 Y64.55 E0.02212
G1 X71.565 Y63.613 E0.05334
G1 X71.699 Y62.685 E0.08452
G1 X71.911 Y61.771 E0.11573
G1 X72.2 Y60.879 E0.14692
G1 X72.565 Y60.015 E0.17811
G1 X73.001 Y59.185 E0.20929
G1 X73.507 Y58.395 E0.2405
G1 X74.078 Y57.651 E0.27169
G1 X74.71 Y56.958 E0.30289
G1 X75.399 Y56.322 E0.33407
G1 X76.14 Y55.747 E0.36527
G1 X76.927 Y55.237 E0.39646
G1 X77.755 Y54.796 E0.42766
G1 X78.617 Y54.427 E0.45885
G1 X79.508 Y54.133 E0.49005
G1 X80.42 Y53.915 E0.52124
G1 X81.347 Y53.777 E0.55241
G1 X82.201 Y53.719 E0.58088
G1 X82.83 Y53.706 E0.60181
G1 X96.229 Y53.706 E1.04746
G1 X98.445 Y53.737 E1.12117
G1 X98.763 Y53.746 E1.13175
G1 X101.312 Y53.744 E1.21653
G1 X103.112 Y53.706 E1.27642
G1 X151.951 Y53.707 E2.90081
G1 X152.649 Y53.717 E2.92403
G1 X153.585 Y53.771 E2.95521
G1 X154.513 Y53.903 E2.98638
G1 X155.427 Y54.115 E3.01759
G1 X156.319 Y54.404 E3.04878
G1 X157.184 Y54.767 E3.07998
G1 X158.014 Y55.203 E3.11116
G1 X158.805 Y55.708 E3.14237
G1 X159.549 Y56.279 E3.17357
G1 X160.242 Y56.911 E3.20476
G1 X160.879 Y57.599 E3.23595
G1 X161.454 Y58.34 E3.26714
G1 X161.965 Y59.126 E3.29833
G1 X162.407 Y59.954 E3.32954
G1 X162.776 Y60.816 E3.36073
G1 X163.071 Y61.706 E3.39191
G1 X163.289 Y62.618 E3.4231
G1 X163.429 Y63.546 E3.45432
G1 X163.487 Y64.407 E3.48302
G1 X163.5 Y65.036 E3.50394
G1 X163.499 Y128.801 E5.62478
G1 X163.489 Y129.528 E5.64896
G1 X163.436 Y130.465 E5.68017
G1 X163.304 Y131.393 E5.71135
G1 X163.093 Y132.307 E5.74255
G1 X162.804 Y133.199 E5.77374
G1 X162.441 Y134.064 E5.80494
G1 X162.006 Y134.895 E5.83613
G1 X161.501 Y135.685 E5.86732
G1 X160.931 Y136.43 E5.89852
G1 X160.3 Y137.124 E5.92972
G1 X159.611 Y137.761 E5.96092
G1 X158.871 Y138.337 E5.99211
G1 X158.085 Y138.848 E6.0233
G1 X157.258 Y139.29 E6.05448
G1 X156.396 Y139.66 E6.08568
G1 X155.506 Y139.955 E6.11687
G1 X154.594 Y140.174 E6.14806
G1 X153.667 Y140.314 E6.17925
G1 X152.799 Y140.373 E6.20818
G1 X152.17 Y140.386 E6.22911
G1 X83.065 Y140.385 E8.52755
G1 X82.367 Y140.376 E8.55077
G1 X81.431 Y140.324 E8.58195
G1 X80.502 Y140.192 E8.61316
G1 X79.588 Y139.982 E8.64435
G1 X78.695 Y139.695 E8.67554
G1 X77.83 Y139.332 E8.70675
G1 X76.999 Y138.898 E8.73793
G1 X76.208 Y138.394 E8.76912
G1 X75.463 Y137.824 E8.80032
G1 X74.769 Y137.193 E8.83152
G1 X74.132 Y136.506 E8.86268
G1 X73.555 Y135.766 E8.89389
G1 X73.043 Y134.98 E8.92509
G1 X72.6 Y134.153 E8.95629
G1 X72.229 Y133.292 E8.98748
G1 X71.933 Y132.402 E9.01867
G1 X71.714 Y131.49 E9.04987
G1 X71.573 Y130.563 E9.08105
G1 X71.513 Y129.674 E9.11069
G1 X71.5 Y129.044 E9.13165
G1 X71.501 Y65.215 E11.25461
G0 F6000 X71.901 Y65.221
G1 F1200 X71.911 Y64.556 E11.27673
G1 X71.965 Y63.637 E11.30735
G1 X72.098 Y62.726 E11.33797
G1 X72.31 Y61.83 E11.36859
G1 X72.599 Y60.955 E11.39924
G1 X72.963 Y60.11 E11.42984
G1 X73.398 Y59.299 E11.46045
G1 X73.903 Y58.528 E11.49111
G1 X74.472 Y57.805 E11.52171
G1 X75.102 Y57.133 E11.55235
G1 X75.788 Y56.519 E11.58297
G1 X76.524 Y55.967 E11.61357
G1 X77.306 Y55.48 E11.64421
G1 X78.127 Y55.064 E11.67482
G1 X78.981 Y54.72 E11.70544
G1 X79.861 Y54.451 E11.73605
G1 X80.762 Y54.26 E11.76668
G1 X81.676 Y54.148 E11.79731
G1 X82.212 Y54.119 E11.81516
G1 X82.83 Y54.106 E11.83572
G1 X96.229 Y54.106 E12.28137
G1 X98.434 Y54.137 E12.35472
G1 X98.752 Y54.146 E12.3653
G1 X101.321 Y54.144 E12.45074
G1 X103.112 Y54.106 E12.51033
G1 X151.945 Y54.107 E14.13452
G1 X152.643 Y54.117 E14.15774
G1 X153.562 Y54.17 E14.18835
G1 X154.473 Y54.303 E14.21897
G1 X155.369 Y54.514 E14.24959
G1 X156.243 Y54.802 E14.2802
G1 X157.09 Y55.165 E14.31085
G1 X157.901 Y55.6 E14.34146
G1 X158.671 Y56.104 E14.37207
G1 X159.395 Y56.673 E14.40269
G1 X160.067 Y57.303 E14.43333
G1 X160.682 Y57.988 E14.46395
G1 X161.235 Y58.724 E14.49457
G1 X161.722 Y59.505 E14.52518
G1 X162.139 Y60.326 E14.55581
G1 X162.484 Y61.18 E14.58644
G1 X162.753 Y62.06 E14.61705
G1 X162.945 Y62.961 E14.64769
G1 X163.058 Y63.874 E14.67829
G1 X163.096 Y64.738 E14.70705
G1 X163.099 Y128.796 E16.83763
G1 X163.089 Y129.523 E16.86181
G1 X163.036 Y130.442 E16.89243
G1 X162.904 Y131.353 E16.92304
G1 X162.693 Y132.249 E16.95366
G1 X162.406 Y133.124 E16.98429
G1 X162.043 Y133.97 E17.01491
G1 X161.609 Y134.782 E17.04553
G1 X161.105 Y135.553 E17.07617
G1 X160.537 Y136.277 E17.10677
G1 X159.908 Y136.949 E17.13739
G1 X159.223 Y137.564 E17.168
G1 X158.487 Y138.117 E17.19862
G1 X157.706 Y138.605 E17.22925
G1 X156.886 Y139.023 E17.25987
G1 X156.032 Y139.368 E17.2905
G1 X155.152 Y139.637 E17.32111
G1 X154.251 Y139.83 E17.35175
G1 X153.338 Y139.943 E17.38235
G1 X152.788 Y139.973 E17.40067
G1 X152.17 Y139.986 E17.42123
G1 X83.07 Y139.985 E19.71951
G1 X82.372 Y139.976 E19.74272
G1 X81.453 Y139.924 E19.77334
G1 X80.542 Y139.793 E19.80395
G1 X79.646 Y139.583 E19.83456
G1 X78.771 Y139.296 E19.86519
G1 X77.924 Y138.934 E19.89582
G1 X77.112 Y138.5 E19.92645
G1 X76.341 Y137.998 E19.95705
G1 X75.616 Y137.43 E19.98768
G1 X74.943 Y136.801 E20.01832
G1 X74.328 Y136.117 E20.04891
G1 X73.774 Y135.382 E20.07952
G1 X73.286 Y134.601 E20.11015
G1 X72.867 Y133.781 E20.14078
G1 X72.521 Y132.928 E20.1714
G1 X72.251 Y132.048 E20.20201
G1 X72.058 Y131.147 E20.23266
G1 X71.944 Y130.234 E20.26326
G1 X71.913 Y129.663 E20.28228
G1 X71.9 Y129.044 E20.30288
G1 X71.901 Y65.221 E22.42564
G0 F6000 X72.301 Y65.227
G1 F1200 X72.311 Y64.562 E22.44776
G1 X72.365 Y63.66 E22.47781
G1 X72.498 Y62.767 E22.50784
G1 X72.709 Y61.889 E22.53787
G1 X72.998 Y61.033 E22.56792
G1 X73.361 Y60.206 E22.59796
G1 X73.795 Y59.415 E22.62797
G1 X74.298 Y58.664 E22.65804
G1 X74.866 Y57.962 E22.68807
G1 X75.493 Y57.312 E22.71811
G1 X76.175 Y56.72 E22.74814
G1 X76.907 Y56.191 E22.77818
G1 X77.683 Y55.729 E22.80822
G1 X78.497 Y55.338 E22.83826
G1 X79.342 Y55.019 E22.8683
G1 X80.212 Y54.777 E22.89833
G1 X81.1 Y54.613 E22.92837
G1 X82.223 Y54.519 E22.96585
G1 X82.83 Y54.506 E22.98604
G1 X96.229 Y54.506 E23.43169
G1 X98.423 Y54.537 E23.50467
G1 X98.741 Y54.546 E23.51526
G1 X101.331 Y54.544 E23.6014
G1 X103.112 Y54.506 E23.66065
G1 X151.939 Y54.507 E25.28464
G1 X152.637 Y54.517 E25.30786
G1 X153.539 Y54.57 E25.33791
G1 X154.432 Y54.702 E25.36794
G1 X155.31 Y54.913 E25.39797
G1 X156.166 Y55.201 E25.42801
G1 X156.993 Y55.563 E25.45803
G1 X157.785 Y55.998 E25.48809
G1 X158.536 Y56.5 E25.51813
G1 X159.239 Y57.067 E25.54817
G1 X159.889 Y57.694 E25.57821
G1 X160.481 Y58.376 E25.60825
G1 X161.011 Y59.107 E25.63828
G1 X161.473 Y59.883 E25.66832
G1 X161.866 Y60.696 E25.69835
G1 X162.184 Y61.541 E25.72838
G1 X162.427 Y62.411 E25.75842
G1 X162.592 Y63.299 E25.78846
G1 X162.687 Y64.429 E25.82618
G1 X162.7 Y65.036 E25.84637
G1 X162.699 Y128.79 E27.96684
G1 X162.689 Y129.517 E27.99102
G1 X162.637 Y130.419 E28.02107
G1 X162.505 Y131.312 E28.0511
G1 X162.294 Y132.191 E28.08116
G1 X162.007 Y133.047 E28.11119
G1 X161.645 Y133.874 E28.14122
G1 X161.211 Y134.666 E28.17126
G1 X160.709 Y135.417 E28.2013
G1 X160.143 Y136.12 E28.23132
G1 X159.516 Y136.771 E28.26138
G1 X158.835 Y137.363 E28.29139
G1 X158.104 Y137.893 E28.32142
G1 X157.328 Y138.356 E28.35148
G1 X156.515 Y138.749 E28.38151
G1 X155.67 Y139.069 E28.41157
G1 X154.801 Y139.312 E28.44158
G1 X153.913 Y139.477 E28.47162
G1 X152.777 Y139.573 E28.50954
G1 X152.17 Y139.586 E28.52973
G1 X83.075 Y139.585 E30.82784
G1 X82.377 Y139.576 E30.85106
G1 X81.476 Y139.525 E30.88107
G1 X80.582 Y139.393 E30.91113
G1 X79.704 Y139.184 E30.94115
G1 X78.847 Y138.897 E30.97121
G1 X78.02 Y138.536 E31.00122
G1 X77.227 Y138.103 E31.03127
G1 X76.476 Y137.602 E31.0613
G1 X75.772 Y137.036 E31.09134
G1 X75.121 Y136.41 E31.12138
G1 X74.528 Y135.729 E31.15141
G1 X73.998 Y134.998 E31.18145
G1 X73.534 Y134.223 E31.21149
G1 X73.14 Y133.41 E31.24154
G1 X72.82 Y132.566 E31.27156
G1 X72.576 Y131.696 E31.30161
G1 X72.41 Y130.808 E31.33166
G1 X72.313 Y129.653 E31.37021
G1 X72.3 Y129.044 E31.39047
G1 X72.301 Y65.227 E33.51303
G1 F2700 E28.51303
G0 F6000 X85.835 Y68.506
G0 X86.3 Y68.506
G1 F2700 E33.51303
G1 F1200 X93.136 Y68.506 E33.7404
G1 X93.136 Y70.874 E33.81916
G1 X93.176 Y71.424 E33.8375
G1 X93.295 Y71.962 E33.85582
G1 X93.491 Y72.477 E33.87415
G1 X93.759 Y72.958 E33.89247
G1 X94.249 Y73.561 E33.91831
G1 X94.531 Y73.843 E33.93157
G1 X94.948 Y74.203 E33.9499
G1 X95.412 Y74.5 E33.96822
G1 X95.915 Y74.726 E33.98656
G1 X96.445 Y74.877 E34.00489
G1 X97.218 Y74.956 E34.03073
G1 X102.508 Y74.956 E34.20668
G1 X103.058 Y74.916 E34.22502
G1 X103.596 Y74.797 E34.24335
G1 X104.111 Y74.601 E34.26168
G1 X104.592 Y74.333 E34.27999
G1 X105.195 Y73.843 E34.30583
G1 X105.477 Y73.561 E34.3191
G1 X105.837 Y73.144 E34.33742
G1 X106.134 Y72.68 E34.35574
G1 X106.36 Y72.177 E34.37408
G1 X106.511 Y71.647 E34.39241
G1 X106.59 Y70.874 E34.41826
G1 X106.59 Y68.506 E34.49702
G1 X148.7 Y68.506 E35.8976
G1 X148.7 Y89.786 E36.60538
G1 X86.3 Y89.786 E38.68081
G1 X86.3 Y68.506 E39.38859
G0 F6000 X85.9 Y68.106
G1 F1200 X93.536 Y68.106 E39.64256
G1 X93.536 Y70.874 E39.73462
G1 X93.576 Y71.394 E39.75197
G1 X93.695 Y71.901 E39.76929
G1 X93.89 Y72.384 E39.78662
G1 X94.156 Y72.832 E39.80394
G1 X94.532 Y73.278 E39.82335
G1 X94.814 Y73.56 E39.83661
G1 X95.21 Y73.899 E39.85395
G1 X95.652 Y74.174 E39.87126
G1 X96.132 Y74.378 E39.88861
G1 X96.637 Y74.506 E39.90594
G1 X97.218 Y74.556 E39.92533
G1 X102.508 Y74.556 E40.10128
G1 X103.028 Y74.516 E40.11863
G1 X103.535 Y74.397 E40.13595
G1 X104.018 Y74.202 E40.15327
G1 X104.466 Y73.936 E40.1706
G1 X104.912 Y73.56 E40.19
G1 X105.194 Y73.278 E40.20327
G1 X105.533 Y72.882 E40.22061
G1 X105.808 Y72.44 E40.23792
G1 X106.012 Y71.96 E40.25527
G1 X106.14 Y71.455 E40.27259
G1 X106.19 Y70.874 E40.29199
G1 X106.19 Y68.106 E40.38405
G1 X149.1 Y68.106 E41.81125
G1 X149.1 Y90.186 E42.54563
G1 X85.9 Y90.186 E44.64767
G1 X85.9 Y68.106 E45.38205
G0 F6000 X85.5 Y67.706
G1 F1200 X93.936 Y67.706 E45.66264
G1 X93.936 Y70.874 E45.768
G1 X93.976 Y71.362 E45.78429
G1 X94.095 Y71.837 E45.80058
G1 X94.289 Y72.286 E45.81684
G1 X94.554 Y72.698 E45.83314
G1 X94.815 Y72.995 E45.84629
G1 X95.097 Y73.277 E45.85955
G1 X95.47 Y73.594 E45.87583
G1 X95.89 Y73.846 E45.89212
G1 X96.345 Y74.026 E45.9084
G1 X96.823 Y74.13 E45.92467
G1 X97.218 Y74.156 E45.93784
G1 X102.508 Y74.156 E46.11378
G1 X102.996 Y74.116 E46.13007
G1 X103.471 Y73.997 E46.14635
G1 X103.92 Y73.803 E46.16262
G1 X104.332 Y73.538 E46.17891
G1 X104.629 Y73.277 E46.19207
G1 X104.911 Y72.995 E46.20533
G1 X105.228 Y72.622 E46.22161
G1 X105.48 Y72.202 E46.2379
G1 X105.66 Y71.747 E46.25418
G1 X105.764 Y71.269 E46.27045
G1 X105.79 Y70.874 E46.28361
G1 X105.79 Y67.706 E46.38898
G1 X149.5 Y67.706 E47.84278
G1 X149.5 Y90.586 E48.60377
G1 X85.5 Y90.586 E50.73242
G1 X85.5 Y67.706 E51.49341
G0 F6000 X85.1 Y67.306
G1 F1200 X94.336 Y67.306 E51.8006
G1 X94.336 Y70.874 E51.91928
G1 X94.376 Y71.328 E51.93444
G1 X94.494 Y71.768 E51.94959
G1 X94.688 Y72.18 E51.96473
G1 X95.098 Y72.712 E51.98707
G1 X95.38 Y72.994 E52.00034
G1 X95.729 Y73.287 E52.01549
G1 X96.124 Y73.514 E52.03065
G1 X96.552 Y73.669 E52.04579
G1 X97.218 Y73.756 E52.06813
G1 X102.508 Y73.756 E52.24407
G1 X102.962 Y73.716 E52.25923
G1 X103.402 Y73.598 E52.27438
G1 X103.814 Y73.404 E52.28953
G1 X104.346 Y72.994 E52.31187
G1 X104.628 Y72.712 E52.32513
G1 X104.921 Y72.363 E52.34029
G1 X105.148 Y71.968 E52.35544
G1 X105.303 Y71.54 E52.37058
G1 X105.39 Y70.874 E52.39292
G1 X105.39 Y67.306 E52.51159
G1 X149.9 Y67.306 E53.992
G1 X149.9 Y90.986 E54.7796
G1 X85.1 Y90.986 E56.93486
G1 X85.1 Y67.306 E57.72246
G0 F6000 X84.7 Y66.906
G1 F1200 X94.736 Y66.906 E58.05626
G1 X94.736 Y70.874 E58.18823
G1 X94.776 Y71.291 E58.20217
G1 X94.894 Y71.693 E58.2161
G1 X95.087 Y72.065 E58.23004
G1 X95.38 Y72.43 E58.24561
G1 X95.662 Y72.712 E58.25887
G1 X95.986 Y72.978 E58.27281
G1 X96.353 Y73.179 E58.28673
G1 X96.753 Y73.306 E58.30069
G1 X97.218 Y73.356 E58.31625
G1 X102.508 Y73.356 E58.49219
G1 X102.925 Y73.316 E58.50612
G1 X103.327 Y73.198 E58.52006
G1 X103.699 Y73.005 E58.534
G1 X104.064 Y72.712 E58.54957
G1 X104.346 Y72.43 E58.56283
G1 X104.612 Y72.106 E58.57677
G1 X104.813 Y71.739 E58.59069
G1 X104.94 Y71.339 E58.60465
G1 X104.99 Y70.874 E58.6202
G1 X104.99 Y66.906 E58.75218
G1 X150.3 Y66.906 E60.2592
G1 X150.3 Y91.386 E61.0734
G1 X84.7 Y91.386 E63.25527
G1 X84.7 Y66.906 E64.06948
G0 F6000 X84.3 Y66.506
G1 F1200 X95.136 Y66.506 E64.42988
G1 X95.136 Y70.874 E64.57516
G1 X95.176 Y71.251 E64.58777
G1 X95.294 Y71.611 E64.60037
G1 X95.484 Y71.938 E64.61295
G1 X95.663 Y72.147 E64.62211
G1 X95.945 Y72.429 E64.63537
G1 X96.24 Y72.667 E64.64798
G1 X96.578 Y72.838 E64.66058
G1 X96.944 Y72.935 E64.67317
G1 X97.218 Y72.956 E64.68231
G1 X102.508 Y72.956 E64.85826
G1 X102.885 Y72.916 E64.87086
G1 X103.245 Y72.798 E64.88347
G1 X103.572 Y72.608 E64.89604
G1 X103.781 Y72.429 E64.9052
G1 X104.063 Y72.147 E64.91846
G1 X104.301 Y71.852 E64.93107
G1 X104.472 Y71.514 E64.94367
G1 X104.569 Y71.148 E64.95626
G1 X104.59 Y70.874 E64.9654
G1 X104.59 Y66.506 E65.11068
G1 X150.7 Y66.506 E66.6443
G1 X150.7 Y91.786 E67.48512
G1 X84.3 Y91.786 E69.69359
G1 X84.3 Y66.506 E70.53441
G0 F6000 X83.9 Y66.106
G1 F1200 X95.536 Y66.106 E70.92143
G1 X95.536 Y70.874 E71.08001
G1 X95.576 Y71.206 E71.09113
G1 X95.693 Y71.518 E71.10221
G1 X95.946 Y71.864 E71.11647
G1 X96.228 Y72.146 E71.12974
G1 X96.491 Y72.352 E71.14085
G1 X96.795 Y72.491 E71.15196
G1 X97.218 Y72.556 E71.1662
G1 X102.508 Y72.556 E71.34214
G1 X102.84 Y72.516 E71.35327
G1 X103.152 Y72.399 E71.36435
G1 X103.498 Y72.146 E71.37861
G1 X103.78 Y71.864 E71.39187
G1 X103.986 Y71.601 E71.40298
G1 X104.125 Y71.297 E71.4141
G1 X104.19 Y70.874 E71.42833
G1 X104.19 Y66.106 E71.58692
G1 X151.1 Y66.106 E73.14715
G1 X151.1 Y92.186 E74.01458
G1 X83.9 Y92.186 E76.24966
G1 X83.9 Y66.106 E77.11708
G0 F6000 X83.5 Y65.706
G1 F1200 X95.936 Y65.706 E77.5307
G1 X95.936 Y70.874 E77.70259
G1 X95.976 Y71.153 E77.71197
G1 X96.092 Y71.41 E77.72135
G1 X96.511 Y71.863 E77.74187
G1 X96.737 Y72.032 E77.75125
G1 X97.001 Y72.132 E77.76064
G1 X97.218 Y72.156 E77.76791
G1 X102.508 Y72.156 E77.94385
G1 X102.787 Y72.116 E77.95323
G1 X103.044 Y72 E77.9626
G1 X103.497 Y71.581 E77.98313
G1 X103.666 Y71.355 E77.99251
G1 X103.766 Y71.091 E78.0019
G1 X103.79 Y70.874 E78.00917
G1 X103.79 Y65.706 E78.18105
G1 X151.5 Y65.706 E79.76789
G1 X151.5 Y92.586 E80.66193
G1 X83.5 Y92.586 E82.92362
G1 X83.5 Y65.706 E83.81765
G0 F6000 X83.1 Y65.306
G1 F1200 X96.336 Y65.306 E84.25788
G1 X96.336 Y70.874 E84.44307
G1 X96.376 Y71.089 E84.45035
G1 X96.512 Y71.298 E84.45864
G1 X96.794 Y71.58 E84.4719
G1 X96.973 Y71.704 E84.47915
G1 X97.218 Y71.756 E84.48748
G1 X102.508 Y71.756 E84.66342
G1 X102.723 Y71.716 E84.6707
G1 X102.932 Y71.58 E84.67899
G1 X103.214 Y71.298 E84.69225
G1 X103.338 Y71.119 E84.6995
G1 X103.39 Y70.874 E84.70783
G1 X103.39 Y65.306 E84.89302
G1 X151.9 Y65.306 E86.50647
G1 X151.9 Y92.986 E87.42711
G1 X83.1 Y92.986 E89.71541
G1 X83.1 Y65.306 E90.63605
G0 F6000 X82.7 Y64.906
G1 F1200 X96.736 Y64.906 E91.10289
G1 X96.736 Y70.874 E91.30138
G1 X96.795 Y71.015 E91.30647
G1 X97.077 Y71.297 E91.31973
G1 X97.218 Y71.356 E91.32481
G1 X102.508 Y71.356 E91.50076
G1 X102.649 Y71.297 E91.50584
G1 X102.931 Y71.015 E91.51911
G1 X102.99 Y70.874 E91.52419
G1 X102.99 Y64.906 E91.72269
G1 X152.3 Y64.906 E93.36275
G1 X152.3 Y93.386 E94.30999
G1 X82.7 Y93.386 E96.6249
G1 X82.7 Y64.906 E97.57215
G1 F2700 E92.57215
