;FLAVOR:Marlin
;TIME:9469
;Filament used: 4.7436m
;Layer height: 0.16
;MINX:36.4
;MINY:88.732
;MINZ:0.2
;MAXX:198.6
;MAXY:131.468
;MAXZ:6.44
;Generated with Cura_SteamEngine 5.0.0
M140 S60
M105
M190 S60
M104 S210
M105
M109 S210
M82 ;absolute extrusion mode
; Ender 3 Custom Start G-code
G92 E0 ; Reset Extruder
G28 ; Home all axes
G1 Z2.0 F3000 ; Move Z Axis up little to prevent scratching of Heat Bed
G1 X0.1 Y20 Z0.3 F5000.0 ; Move to start position
G1 X0.1 Y200.0 Z0.3 F1500.0 E15 ; Draw the first line
G1 X0.4 Y200.0 Z0.3 F5000.0 ; Move to side a little
G1 X0.4 Y20 Z0.3 F1500.0 E30 ; Draw the second line
G92 E0 ; Reset Extruder
G1 Z2.0 F3000 ; Move Z Axis up little to prevent scratching of Heat Bed
G1 X5 Y20 Z0.3 F5000.0 ; Move over to prevent blob squish
G92 E0
G92 E0
G1 F2700 E-7
;LAYER_COUNT:40
;LAYER:0
M107
G0 F6000 X42.646 Y90.203 Z0.2
G0 X36.401 Y100.696
;TYPE:SKIRT
G1 F2700 E0
G1 F1200 X36.41 Y100.031 E0.02433
G1 X36.463 Y99.09 E0.05881
G1 X36.595 Y98.157 E0.09329
G1 X36.806 Y97.239 E0.12775
G1 X37.094 Y96.342 E0.16222
G1 X37.457 Y95.473 E0.19667
G1 X37.892 Y94.637 E0.23115
G1 X38.397 Y93.842 E0.26561
G1 X38.968 Y93.092 E0.3001
G1 X39.6 Y92.393 E0.33458
G1 X40.288 Y91.751 E0.369
G1 X41.029 Y91.169 E0.40348
G1 X41.817 Y90.652 E0.43796
G1 X42.646 Y90.203 E0.47245
G1 X43.509 Y89.827 E0.50689
G1 X44.402 Y89.525 E0.54138
G1 X45.316 Y89.3 E0.57582
G1 X46.247 Y89.153 E0.6103
G1 X47.199 Y89.085 E0.64522
G1 X47.83 Y89.072 E0.66831
G1 X61.503 Y89.071 E1.16855
G1 X64.108 Y89.034 E1.26387
G1 X66.619 Y88.928 E1.35582
G1 X68.959 Y88.769 E1.44163
G1 X69.59 Y88.745 E1.46473
G1 X70.991 Y88.733 E1.51599
G1 X71.688 Y88.743 E1.54149
G1 X72.312 Y88.77 E1.56434
G1 X73.356 Y88.844 E1.60264
G1 X75.932 Y88.99 E1.69703
G1 X78.515 Y89.063 E1.79157
G1 X79.81 Y89.072 E1.83895
G1 X108.133 Y89.072 E2.87518
G1 X110.737 Y89.035 E2.97046
G1 X113.273 Y88.927 E3.06333
G1 X115.668 Y88.767 E3.15115
G1 X116.329 Y88.742 E3.17535
G1 X118.092 Y88.732 E3.23985
G1 X118.757 Y88.742 E3.26418
G1 X119.366 Y88.768 E3.28649
G1 X120.518 Y88.849 E3.32874
G1 X123.001 Y88.989 E3.41972
G1 X126.96 Y89.072 E3.5646
G1 X155.192 Y89.071 E4.5975
G1 X157.797 Y89.034 E4.69282
G1 X160.323 Y88.927 E4.78532
G1 X162.7 Y88.767 E4.87248
G1 X163.335 Y88.743 E4.89573
G1 X164.717 Y88.732 E4.94629
G1 X165.415 Y88.742 E4.97183
G1 X166.04 Y88.769 E4.99472
G1 X167.102 Y88.844 E5.03367
G1 X169.672 Y88.99 E5.12785
G1 X172.255 Y89.063 E5.22239
G1 X173.55 Y89.072 E5.26977
G1 X186.952 Y89.073 E5.7601
G1 X187.65 Y89.083 E5.78564
G1 X188.591 Y89.137 E5.82012
G1 X189.523 Y89.27 E5.85456
G1 X190.441 Y89.481 E5.88903
G1 X191.338 Y89.77 E5.9235
G1 X192.207 Y90.134 E5.95797
G1 X193.042 Y90.57 E5.99244
G1 X193.837 Y91.075 E6.0269
G1 X194.587 Y91.646 E6.06138
G1 X195.285 Y92.279 E6.09586
G1 X195.927 Y92.968 E6.13031
G1 X196.509 Y93.709 E6.16478
G1 X197.025 Y94.497 E6.19925
G1 X197.473 Y95.326 E6.23372
G1 X197.848 Y96.19 E6.26818
G1 X198.15 Y97.083 E6.30267
G1 X198.374 Y97.998 E6.33713
G1 X198.52 Y98.929 E6.37161
G1 X198.587 Y99.87 E6.40613
G1 X198.6 Y100.502 E6.42925
G1 X198.599 Y104.664 E6.58153
G1 X198.58 Y105.701 E6.61947
G1 X198.56 Y106.179 E6.63698
G1 X198.485 Y108.85 E6.73474
G1 X198.485 Y111.369 E6.8269
G1 X198.6 Y115.293 E6.97052
G1 X198.599 Y119.429 E7.12184
G1 X198.59 Y120.156 E7.14844
G1 X198.539 Y121.097 E7.18292
G1 X198.407 Y122.03 E7.2174
G1 X198.197 Y122.949 E7.25188
G1 X197.91 Y123.846 E7.28634
G1 X197.548 Y124.716 E7.32082
G1 X197.114 Y125.552 E7.35528
G1 X196.61 Y126.348 E7.38975
G1 X196.041 Y127.098 E7.42419
G1 X195.409 Y127.798 E7.45869
G1 X194.721 Y128.441 E7.49315
G1 X193.981 Y129.024 E7.52761
G1 X193.194 Y129.542 E7.56208
G1 X192.366 Y129.991 E7.59655
G1 X191.503 Y130.369 E7.63102
G1 X190.611 Y130.672 E7.66548
G1 X189.696 Y130.898 E7.69996
G1 X188.766 Y131.046 E7.73442
G1 X187.801 Y131.115 E7.76981
G1 X187.17 Y131.128 E7.7929
G1 X173.497 Y131.129 E8.29315
G1 X170.892 Y131.166 E8.38846
G1 X168.381 Y131.272 E8.48041
G1 X166.041 Y131.431 E8.56622
G1 X165.41 Y131.455 E8.58932
G1 X164.009 Y131.467 E8.64058
G1 X163.312 Y131.457 E8.66609
G1 X162.688 Y131.43 E8.68894
G1 X161.644 Y131.356 E8.72723
G1 X159.068 Y131.21 E8.82163
G1 X156.485 Y131.137 E8.91617
G1 X155.19 Y131.128 E8.96355
G1 X126.867 Y131.128 E9.99978
G1 X124.263 Y131.165 E10.09506
G1 X121.727 Y131.273 E10.18792
G1 X119.332 Y131.433 E10.27574
G1 X118.671 Y131.458 E10.29994
G1 X116.909 Y131.468 E10.36441
G1 X116.242 Y131.458 E10.38881
G1 X115.63 Y131.432 E10.41122
G1 X114.472 Y131.351 E10.45369
G1 X111.999 Y131.211 E10.54432
G1 X108.04 Y131.128 E10.68919
G1 X79.808 Y131.129 E11.72209
G1 X77.203 Y131.166 E11.81741
G1 X74.677 Y131.273 E11.90991
G1 X72.3 Y131.433 E11.99707
G1 X71.665 Y131.457 E12.02032
G1 X70.283 Y131.468 E12.07088
G1 X69.585 Y131.458 E12.09642
G1 X68.96 Y131.431 E12.11931
G1 X67.898 Y131.356 E12.15826
G1 X65.328 Y131.21 E12.25244
G1 X62.745 Y131.137 E12.34698
G1 X61.45 Y131.128 E12.39436
G1 X48.048 Y131.127 E12.88469
G1 X47.35 Y131.117 E12.91023
G1 X46.409 Y131.063 E12.94471
G1 X45.477 Y130.93 E12.97916
G1 X44.559 Y130.719 E13.01362
G1 X43.662 Y130.43 E13.0481
G1 X42.793 Y130.066 E13.08257
G1 X41.958 Y129.63 E13.11703
G1 X41.163 Y129.125 E13.15149
G1 X40.413 Y128.554 E13.18598
G1 X39.715 Y127.921 E13.22045
G1 X39.073 Y127.232 E13.2549
G1 X38.491 Y126.491 E13.28938
G1 X37.975 Y125.703 E13.32384
G1 X37.527 Y124.874 E13.35831
G1 X37.152 Y124.01 E13.39277
G1 X36.85 Y123.117 E13.42726
G1 X36.626 Y122.202 E13.46173
G1 X36.48 Y121.271 E13.49621
G1 X36.413 Y120.319 E13.53112
G1 X36.4 Y119.686 E13.55429
G1 X36.401 Y115.514 E13.70692
G1 X36.42 Y114.49 E13.74439
G1 X36.443 Y113.944 E13.76439
G1 X36.515 Y111.35 E13.85933
G1 X36.515 Y108.831 E13.95149
G1 X36.4 Y104.907 E14.09511
G1 X36.401 Y100.696 E14.24918
G1 F2700 E7.24918
G0 F6000 X36.84 Y104.907
G1 F2700 E14.24918
G1 F1200 X36.841 Y100.702 E14.40302
G1 X36.85 Y100.037 E14.42736
G1 X36.902 Y99.115 E14.46114
G1 X37.034 Y98.201 E14.49493
G1 X37.245 Y97.302 E14.52871
G1 X37.533 Y96.425 E14.56248
G1 X37.895 Y95.576 E14.59625
G1 X38.33 Y94.761 E14.63005
G1 X38.833 Y93.987 E14.66382
G1 X39.401 Y93.26 E14.69758
G1 X40.031 Y92.584 E14.73138
G1 X40.716 Y91.966 E14.76514
G1 X41.452 Y91.409 E14.79891
G1 X42.234 Y90.918 E14.83269
G1 X43.056 Y90.496 E14.8665
G1 X43.91 Y90.147 E14.90025
G1 X44.792 Y89.873 E14.93404
G1 X45.694 Y89.677 E14.96781
G1 X46.61 Y89.559 E15.0016
G1 X47.211 Y89.525 E15.02362
G1 X47.83 Y89.512 E15.04627
G1 X61.509 Y89.511 E15.54674
G1 X64.133 Y89.474 E15.64275
G1 X66.625 Y89.368 E15.734
G1 X68.988 Y89.208 E15.82065
G1 X69.595 Y89.185 E15.84288
G1 X70.985 Y89.173 E15.89373
G1 X71.682 Y89.183 E15.91924
G1 X72.281 Y89.209 E15.94117
G1 X73.301 Y89.281 E15.97858
G1 X75.929 Y89.43 E16.07489
G1 X78.5 Y89.503 E16.16899
G1 X79.807 Y89.512 E16.21681
G1 X108.139 Y89.512 E17.25337
G1 X110.762 Y89.475 E17.34934
G1 X113.279 Y89.368 E17.44151
G1 X115.697 Y89.206 E17.53017
G1 X116.333 Y89.182 E17.55346
G1 X118.085 Y89.172 E17.61756
G1 X118.75 Y89.182 E17.64189
G1 X119.335 Y89.207 E17.66332
G1 X120.462 Y89.286 E17.70465
G1 X122.995 Y89.429 E17.79747
G1 X126.951 Y89.512 E17.94224
G1 X155.199 Y89.511 E18.97572
G1 X157.822 Y89.474 E19.0717
G1 X160.331 Y89.367 E19.16357
G1 X162.73 Y89.206 E19.25154
G1 X163.34 Y89.183 E19.27388
G1 X164.711 Y89.172 E19.32404
G1 X165.409 Y89.182 E19.34958
G1 X166.009 Y89.208 E19.37155
G1 X167.047 Y89.281 E19.40962
G1 X169.669 Y89.43 E19.5057
G1 X172.24 Y89.503 E19.5998
G1 X173.547 Y89.512 E19.64762
G1 X186.946 Y89.513 E20.13784
G1 X187.644 Y89.523 E20.16338
G1 X188.565 Y89.576 E20.19713
G1 X189.479 Y89.709 E20.23092
G1 X190.378 Y89.92 E20.26471
G1 X191.255 Y90.209 E20.29849
G1 X192.104 Y90.572 E20.33227
G1 X192.918 Y91.007 E20.36604
G1 X193.692 Y91.511 E20.39983
G1 X194.419 Y92.08 E20.43361
G1 X195.094 Y92.71 E20.46739
G1 X195.712 Y93.396 E20.50117
G1 X196.268 Y94.132 E20.53492
G1 X196.759 Y94.915 E20.56873
G1 X197.18 Y95.736 E20.60249
G1 X197.528 Y96.591 E20.63626
G1 X197.801 Y97.473 E20.67004
G1 X197.997 Y98.375 E20.70381
G1 X198.114 Y99.291 E20.7376
G1 X198.147 Y99.882 E20.75925
G1 X198.16 Y100.502 E20.78194
G1 X198.159 Y104.658 E20.93399
G1 X198.141 Y105.683 E20.9715
G1 X198.118 Y106.241 E20.99193
G1 X198.045 Y108.838 E21.08698
G1 X198.045 Y111.348 E21.17881
G1 X198.16 Y115.293 E21.32321
G1 X198.159 Y119.424 E21.47434
G1 X198.15 Y120.151 E21.50095
G1 X198.099 Y121.073 E21.53473
G1 X197.968 Y121.987 E21.56851
G1 X197.758 Y122.886 E21.60229
G1 X197.472 Y123.764 E21.63607
G1 X197.11 Y124.613 E21.66984
G1 X196.677 Y125.428 E21.7036
G1 X196.174 Y126.203 E21.73741
G1 X195.607 Y126.931 E21.77117
G1 X194.978 Y127.607 E21.80495
G1 X194.293 Y128.227 E21.83875
G1 X193.558 Y128.784 E21.87249
G1 X192.776 Y129.276 E21.90629
G1 X191.956 Y129.699 E21.94005
G1 X191.101 Y130.049 E21.97385
G1 X190.22 Y130.324 E22.00762
G1 X189.318 Y130.521 E22.0414
G1 X188.402 Y130.64 E22.07519
G1 X187.789 Y130.675 E22.09765
G1 X187.17 Y130.688 E22.12031
G1 X173.491 Y130.689 E22.62077
G1 X170.867 Y130.726 E22.71678
G1 X168.375 Y130.832 E22.80803
G1 X166.012 Y130.992 E22.89469
G1 X165.405 Y131.015 E22.91691
G1 X164.015 Y131.027 E22.96777
G1 X163.318 Y131.017 E22.99327
G1 X162.719 Y130.991 E23.0152
G1 X161.699 Y130.919 E23.05262
G1 X159.071 Y130.77 E23.14892
G1 X156.5 Y130.697 E23.24302
G1 X155.193 Y130.688 E23.29084
G1 X126.861 Y130.688 E24.3274
G1 X124.238 Y130.725 E24.42337
G1 X121.721 Y130.832 E24.51554
G1 X119.303 Y130.994 E24.60421
G1 X118.667 Y131.018 E24.62749
G1 X116.915 Y131.028 E24.69159
G1 X116.248 Y131.018 E24.716
G1 X115.661 Y130.993 E24.73749
G1 X114.527 Y130.913 E24.77908
G1 X112.005 Y130.771 E24.8715
G1 X108.049 Y130.688 E25.01627
G1 X79.801 Y130.689 E26.04975
G1 X77.178 Y130.726 E26.14573
G1 X74.669 Y130.833 E26.23761
G1 X72.27 Y130.994 E26.32557
G1 X71.66 Y131.017 E26.34791
G1 X70.289 Y131.028 E26.39807
G1 X69.591 Y131.018 E26.42361
G1 X68.991 Y130.992 E26.44558
G1 X67.953 Y130.919 E26.48365
G1 X65.331 Y130.77 E26.57973
G1 X62.76 Y130.697 E26.67384
G1 X61.453 Y130.688 E26.72165
G1 X48.054 Y130.687 E27.21187
G1 X47.356 Y130.677 E27.23741
G1 X46.435 Y130.624 E27.27116
G1 X45.521 Y130.491 E27.30496
G1 X44.622 Y130.28 E27.33874
G1 X43.745 Y129.991 E27.37252
G1 X42.896 Y129.628 E27.40631
G1 X42.082 Y129.193 E27.44007
G1 X41.308 Y128.689 E27.47386
G1 X40.581 Y128.12 E27.50764
G1 X39.906 Y127.49 E27.54142
G1 X39.288 Y126.804 E27.5752
G1 X38.732 Y126.068 E27.60895
G1 X38.241 Y125.285 E27.64276
G1 X37.82 Y124.464 E27.67652
G1 X37.472 Y123.609 E27.71029
G1 X37.199 Y122.727 E27.74407
G1 X37.003 Y121.825 E27.77784
G1 X36.886 Y120.909 E27.81163
G1 X36.853 Y120.307 E27.83369
G1 X36.84 Y119.686 E27.85641
G1 X36.841 Y115.52 E28.00883
G1 X36.86 Y114.509 E28.04582
G1 X36.881 Y114.016 E28.06388
G1 X36.955 Y111.362 E28.16101
G1 X36.955 Y108.852 E28.25285
G1 X36.84 Y104.907 E28.39724
G0 F6000 X37.28 Y104.907
G1 F1200 X37.281 Y100.708 E28.55086
G1 X37.29 Y100.043 E28.5752
G1 X37.342 Y99.14 E28.60829
G1 X37.474 Y98.246 E28.64135
G1 X37.684 Y97.367 E28.67442
G1 X37.971 Y96.509 E28.70752
G1 X38.333 Y95.681 E28.74058
G1 X38.767 Y94.888 E28.77365
G1 X39.268 Y94.136 E28.80671
G1 X39.835 Y93.431 E28.83981
G1 X40.461 Y92.78 E28.87285
G1 X41.143 Y92.186 E28.90594
G1 X41.874 Y91.655 E28.939
G1 X42.65 Y91.19 E28.9721
G1 X43.463 Y90.796 E29.00515
G1 X44.309 Y90.475 E29.03825
G1 X45.179 Y90.23 E29.07132
G1 X46.067 Y90.063 E29.10438
G1 X47.223 Y89.965 E29.14683
G1 X47.83 Y89.952 E29.16904
G1 X61.515 Y89.951 E29.66972
G1 X64.122 Y89.914 E29.76511
G1 X66.675 Y89.806 E29.8586
G1 X69.018 Y89.647 E29.94452
G1 X69.6 Y89.625 E29.96582
G1 X70.979 Y89.613 E30.01628
G1 X71.676 Y89.623 E30.04178
G1 X72.25 Y89.647 E30.0628
G1 X73.317 Y89.722 E30.10193
G1 X75.927 Y89.87 E30.19758
G1 X78.484 Y89.943 E30.29117
G1 X79.804 Y89.952 E30.33946
G1 X108.145 Y89.952 E31.37635
G1 X110.751 Y89.915 E31.4717
G1 X113.33 Y89.806 E31.56614
G1 X115.727 Y89.645 E31.65404
G1 X116.336 Y89.622 E31.67633
G1 X118.079 Y89.612 E31.7401
G1 X118.744 Y89.622 E31.76444
G1 X119.305 Y89.646 E31.78498
G1 X120.408 Y89.723 E31.82543
G1 X122.991 Y89.869 E31.92009
G1 X126.941 Y89.952 E32.06463
G1 X155.205 Y89.951 E33.0987
G1 X157.811 Y89.914 E33.19406
G1 X160.379 Y89.805 E33.2881
G1 X162.759 Y89.645 E33.37537
G1 X163.344 Y89.622 E33.39679
G1 X164.704 Y89.612 E33.44655
G1 X165.402 Y89.622 E33.47208
G1 X165.978 Y89.647 E33.49318
G1 X166.992 Y89.719 E33.53037
G1 X169.667 Y89.87 E33.62839
G1 X172.224 Y89.943 E33.72198
G1 X173.544 Y89.952 E33.77028
G1 X186.939 Y89.953 E34.26035
G1 X187.637 Y89.963 E34.28589
G1 X188.54 Y90.016 E34.31898
G1 X189.434 Y90.148 E34.35205
G1 X190.313 Y90.359 E34.38512
G1 X191.17 Y90.647 E34.4182
G1 X191.998 Y91.01 E34.45127
G1 X192.791 Y91.444 E34.48435
G1 X193.543 Y91.946 E34.51743
G1 X194.247 Y92.513 E34.5505
G1 X194.898 Y93.14 E34.58357
G1 X195.491 Y93.822 E34.61663
G1 X196.022 Y94.554 E34.64972
G1 X196.486 Y95.33 E34.68279
G1 X196.879 Y96.144 E34.71587
G1 X197.199 Y96.989 E34.74892
G1 X197.444 Y97.86 E34.78203
G1 X197.61 Y98.748 E34.81508
G1 X197.707 Y99.895 E34.85719
G1 X197.72 Y100.502 E34.8794
G1 X197.719 Y104.652 E35.03124
G1 X197.701 Y105.664 E35.06827
G1 X197.68 Y106.154 E35.08621
G1 X197.605 Y108.825 E35.18397
G1 X197.605 Y111.36 E35.27672
G1 X197.72 Y115.293 E35.42067
G1 X197.719 Y119.419 E35.57163
G1 X197.71 Y120.146 E35.59823
G1 X197.659 Y121.048 E35.63128
G1 X197.528 Y121.943 E35.66437
G1 X197.319 Y122.822 E35.69743
G1 X197.033 Y123.679 E35.73048
G1 X196.672 Y124.508 E35.76357
G1 X196.24 Y125.302 E35.79664
G1 X195.738 Y126.055 E35.82975
G1 X195.173 Y126.76 E35.8628
G1 X194.547 Y127.412 E35.89587
G1 X193.866 Y128.007 E35.92896
G1 X193.135 Y128.539 E35.96203
G1 X192.361 Y129.004 E35.99507
G1 X191.547 Y129.399 E36.02817
G1 X190.703 Y129.721 E36.06122
G1 X189.833 Y129.967 E36.0943
G1 X188.945 Y130.135 E36.12736
G1 X187.777 Y130.235 E36.17025
G1 X187.17 Y130.248 E36.19246
G1 X173.485 Y130.249 E36.69315
G1 X170.878 Y130.286 E36.78854
G1 X168.325 Y130.394 E36.88202
G1 X165.982 Y130.553 E36.96794
G1 X165.4 Y130.575 E36.98925
G1 X164.021 Y130.587 E37.0397
G1 X163.324 Y130.577 E37.06521
G1 X162.75 Y130.553 E37.08623
G1 X161.683 Y130.478 E37.12536
G1 X159.073 Y130.33 E37.221
G1 X156.516 Y130.257 E37.31459
G1 X155.196 Y130.248 E37.36289
G1 X126.855 Y130.248 E38.39977
G1 X124.249 Y130.285 E38.49513
G1 X121.67 Y130.394 E38.58957
G1 X119.273 Y130.555 E38.67746
G1 X118.664 Y130.578 E38.69976
G1 X116.922 Y130.588 E38.76349
G1 X116.255 Y130.578 E38.7879
G1 X115.692 Y130.554 E38.80852
G1 X114.586 Y130.476 E38.84908
G1 X112.009 Y130.331 E38.94351
G1 X108.059 Y130.248 E39.08806
G1 X79.795 Y130.249 E40.12213
G1 X77.189 Y130.286 E40.21748
G1 X74.621 Y130.395 E40.31152
G1 X72.241 Y130.555 E40.39879
G1 X71.656 Y130.578 E40.42021
G1 X70.296 Y130.588 E40.46997
G1 X69.598 Y130.578 E40.49551
G1 X69.022 Y130.553 E40.5166
G1 X68.008 Y130.481 E40.5538
G1 X65.333 Y130.33 E40.65182
G1 X62.776 Y130.257 E40.74541
G1 X61.456 Y130.248 E40.7937
G1 X48.061 Y130.247 E41.28377
G1 X47.363 Y130.237 E41.30931
G1 X46.46 Y130.184 E41.34241
G1 X45.566 Y130.052 E41.37547
G1 X44.687 Y129.841 E41.40854
G1 X43.83 Y129.553 E41.44162
G1 X43.002 Y129.19 E41.4747
G1 X42.209 Y128.756 E41.50777
G1 X41.457 Y128.254 E41.54085
G1 X40.753 Y127.687 E41.57392
G1 X40.102 Y127.06 E41.60699
G1 X39.509 Y126.378 E41.64006
G1 X38.978 Y125.646 E41.67314
G1 X38.514 Y124.87 E41.70622
G1 X38.121 Y124.056 E41.73929
G1 X37.801 Y123.211 E41.77235
G1 X37.556 Y122.34 E41.80545
G1 X37.39 Y121.452 E41.8385
G1 X37.293 Y120.295 E41.88098
G1 X37.28 Y119.686 E41.90327
G1 X37.281 Y115.526 E42.05547
G1 X37.299 Y114.527 E42.09202
G1 X37.322 Y113.974 E42.11227
G1 X37.395 Y111.375 E42.2074
G1 X37.395 Y108.84 E42.30014
G1 X37.28 Y104.907 E42.4441
G1 F2700 E35.4441
G0 F6000 X46.847 Y105.89
G0 X116.787 Y105.881
G0 X117.5 Y102.565
G0 X117.419 Y102.705
G1 F2700 E42.4441
G1 F1200 X117.5 Y102.565 E42.45001
G1 X117.58 Y102.704 E42.45588
G1 X117.499 Y102.844 E42.4618
G1 X117.419 Y102.705 E42.46767
G0 F6000 X116.911 Y102.704
G1 F1200 X117.5 Y101.685 E42.51073
G1 X118.088 Y102.704 E42.55377
G1 X117.5 Y103.724 E42.59685
G1 X116.911 Y102.704 E42.63994
G0 F6000 X116.403 Y102.704
