;FLAVOR:Marlin
;TIME:2176
;Filament used: 1.23647m
;Layer height: 0.2
;MINX:81.078
;MINY:90.516
;MINZ:0.2
;MAXX:137.04
;MAXY:147.05
;MAXZ:14
;Generated with Cura_SteamEngine 5.0.0
M140 S50
M105
M190 S50
M104 S200
M105
M109 S200
M82 ;absolute extrusion mode
; Ender 3 Custom Start G-code
G92 E0 ; Reset Extruder
G28 ; Home all axes
G1 Z2.0 F3000 ; Move Z Axis up little to prevent scratching of Heat Bed
G1 X0.1 Y20 Z0.3 F5000.0 ; Move to start position
G1 X0.1 Y200.0 Z0.3 F1500.0 E15 ; Draw the first line
G1 X0.4 Y200.0 Z0.3 F5000.0 ; Move to side a little
G1 X0.4 Y20 Z0.3 F1500.0 E30 ; Draw the second line
G92 E0 ; Reset Extruder
G1 Z2.0 F3000 ; Move Z Axis up little to prevent scratching of Heat Bed
G1 X5 Y20 Z0.3 F5000.0 ; Move over to prevent blob squish
G92 E0
G92 E0
G1 F2700 E-5
;LAYER_COUNT:70
;LAYER:0
M107
G0 F6000 X87.295 Y97.737 Z0.2
G0 X81.078 Y112.052
;TYPE:SKIRT
G1 F2700 E0
G1 F1200 X81.096 Y111.178 E0.02908
G1 X81.136 Y110.341 E0.05695
G1 X81.227 Y109.358 E0.08978
G1 X81.337 Y108.563 E0.11647
G1 X81.504 Y107.646 E0.14748
G1 X81.687 Y106.877 E0.17377
G1 X81.914 Y106.102 E0.20063
G1 X82.131 Y105.445 E0.22364
G1 X82.497 Y104.488 E0.25772
G1 X82.828 Y103.731 E0.2852
G1 X83.26 Y102.851 E0.3178
G1 X83.577 Y102.298 E0.339
G1 X84.054 Y101.518 E0.36941
G1 X84.562 Y100.759 E0.39979
G1 X85.029 Y100.137 E0.42566
G1 X85.229 Y99.886 E0.43633
G1 X85.601 Y99.444 E0.45555
G1 X86.157 Y98.831 E0.48307
G1 X86.72 Y98.263 E0.50967
G1 X87.295 Y97.737 E0.53559
G1 X87.83 Y97.279 E0.55902
G1 X88.66 Y96.634 E0.59398
G1 X89.235 Y96.23 E0.61735
G1 X90.075 Y95.695 E0.65048
G1 X90.628 Y95.377 E0.67169
G1 X91.524 Y94.915 E0.70522
G1 X92.278 Y94.569 E0.73282
G1 X93.143 Y94.216 E0.76389
G1 X93.908 Y93.951 E0.79082
G1 X94.708 Y93.713 E0.81858
G1 X95.49 Y93.518 E0.84538
G1 X95.824 Y93.445 E0.85675
G1 X96.433 Y93.329 E0.87737
G1 X99.631 Y92.817 E0.98509
G1 X102.123 Y92.347 E1.06944
G1 X104.588 Y91.81 E1.15335
G1 X106.935 Y91.23 E1.23376
G1 X108.278 Y90.88 E1.27992
G1 X109.195 Y90.683 E1.31111
G1 X110.125 Y90.564 E1.3423
G1 X110.741 Y90.529 E1.36282
G1 X111.37 Y90.516 E1.38374
G1 X117.964 Y90.516 E1.60306
G1 X119.065 Y90.532 E1.63968
G1 X119.866 Y90.573 E1.66636
G1 X120.742 Y90.656 E1.69563
G1 X121.566 Y90.774 E1.72331
G1 X122.313 Y90.914 E1.74859
G1 X122.667 Y90.991 E1.76064
G1 X123.363 Y91.167 E1.78452
G1 X123.809 Y91.295 E1.79995
G1 X124.652 Y91.574 E1.82949
G1 X125.414 Y91.861 E1.85657
G1 X126.3 Y92.24 E1.88862
G1 X126.835 Y92.497 E1.90836
G1 X127.731 Y92.98 E1.94222
G1 X128.416 Y93.391 E1.96878
G1 X129.169 Y93.885 E1.99874
G1 X129.774 Y94.339 E2.0239
G1 X130.444 Y94.876 E2.05245
G1 X131.159 Y95.501 E2.08404
G1 X131.609 Y95.947 E2.10511
G1 X132.226 Y96.595 E2.13487
G1 X132.804 Y97.252 E2.16398
G1 X133.027 Y97.527 E2.17575
G1 X133.446 Y98.079 E2.1988
G1 X133.727 Y98.474 E2.21493
G1 X134.219 Y99.229 E2.2449
G1 X134.606 Y99.88 E2.27009
G1 X135.079 Y100.765 E2.30346
G1 X135.4 Y101.438 E2.32826
G1 X135.747 Y102.246 E2.35751
G1 X136.033 Y103.022 E2.38502
G1 X136.136 Y103.331 E2.39585
G1 X136.384 Y104.171 E2.42498
G1 X136.526 Y104.738 E2.44442
G1 X136.629 Y105.2 E2.46017
G1 X136.793 Y106.114 E2.49105
G1 X136.911 Y106.983 E2.52022
G1 X136.997 Y107.906 E2.55105
G1 X137.024 Y108.559 E2.57279
G1 X137.04 Y109.657 E2.60931
G1 X137.039 Y125.514 E3.13672
G1 X137.021 Y126.389 E3.16583
G1 X136.981 Y127.225 E3.19367
G1 X136.89 Y128.21 E3.22657
G1 X136.78 Y129.003 E3.25319
G1 X136.627 Y129.854 E3.28195
G1 X136.554 Y130.186 E3.29326
G1 X136.35 Y130.981 E3.32056
G1 X136.202 Y131.467 E3.33745
G1 X135.986 Y132.121 E3.36036
G1 X135.618 Y133.083 E3.39462
G1 X135.287 Y133.839 E3.42207
G1 X134.876 Y134.678 E3.45314
G1 X134.543 Y135.264 E3.47556
G1 X134.065 Y136.046 E3.50604
G1 X133.555 Y136.807 E3.53651
G1 X133.091 Y137.425 E3.56222
G1 X132.537 Y138.099 E3.59123
G1 X131.961 Y138.735 E3.61977
G1 X131.401 Y139.301 E3.64626
G1 X131.156 Y139.534 E3.6575
G1 X130.658 Y139.979 E3.67971
G1 X130.254 Y140.319 E3.69728
G1 X129.504 Y140.897 E3.72877
G1 X128.889 Y141.33 E3.75379
G1 X128.041 Y141.871 E3.78724
G1 X127.49 Y142.188 E3.80838
G1 X126.587 Y142.653 E3.84217
G1 X125.834 Y142.998 E3.86971
G1 X124.991 Y143.343 E3.90001
G1 X124.242 Y143.604 E3.92639
G1 X123.939 Y143.7 E3.93696
G1 X123.395 Y143.857 E3.95579
G1 X122.607 Y144.053 E3.9828
G1 X122.275 Y144.125 E3.9941
G1 X121.684 Y144.237 E4.01411
G1 X118.486 Y144.749 E4.12183
G1 X115.994 Y145.219 E4.20617
G1 X113.529 Y145.756 E4.29008
G1 X111.182 Y146.336 E4.37049
G1 X109.839 Y146.686 E4.41665
G1 X108.922 Y146.883 E4.44785
G1 X107.992 Y147.002 E4.47903
G1 X107.376 Y147.037 E4.49955
G1 X106.747 Y147.05 E4.52048
G1 X100.023 Y147.049 E4.74412
G1 X99.055 Y147.034 E4.77632
G1 X98.245 Y146.993 E4.8033
G1 X97.889 Y146.964 E4.81517
G1 X97.054 Y146.868 E4.84313
G1 X96.233 Y146.736 E4.87079
G1 X95.48 Y146.582 E4.89635
G1 X94.753 Y146.4 E4.92128
G1 X94.269 Y146.261 E4.93803
G1 X93.404 Y145.973 E4.96835
G1 X92.7 Y145.706 E4.99339
G1 X91.833 Y145.334 E5.02477
G1 X91.255 Y145.056 E5.0461
G1 X90.341 Y144.562 E5.08066
G1 X89.678 Y144.162 E5.10641
G1 X88.933 Y143.67 E5.13611
G1 X88.288 Y143.193 E5.16279
G1 X88.017 Y142.98 E5.17425
G1 X87.576 Y142.615 E5.19329
G1 X87.235 Y142.317 E5.20835
G1 X86.5 Y141.613 E5.24221
G1 X85.884 Y140.965 E5.27194
G1 X85.309 Y140.31 E5.30093
G1 X84.774 Y139.631 E5.32968
G1 X84.317 Y138.991 E5.35584
G1 X83.893 Y138.332 E5.3819
G1 X83.527 Y137.718 E5.40568
G1 X83.056 Y136.84 E5.43882
G1 X82.779 Y136.262 E5.46013
G1 X82.396 Y135.361 E5.4927
G1 X82.111 Y134.599 E5.51976
G1 X81.825 Y133.723 E5.55041
G1 X81.737 Y133.41 E5.56122
G1 X81.584 Y132.802 E5.58207
G1 X81.481 Y132.335 E5.59798
G1 X81.323 Y131.445 E5.62804
G1 X81.206 Y130.583 E5.65697
G1 X81.112 Y129.46 E5.69446
G1 X81.079 Y128.272 E5.73398
G1 X81.078 Y112.052 E6.27346
G0 F6000 X81.478 Y112.057
G1 F1200 X81.495 Y111.197 E6.30207
G1 X81.535 Y110.36 E6.32994
G1 X81.623 Y109.413 E6.36158
G1 X81.733 Y108.618 E6.38827
G1 X81.894 Y107.734 E6.41816
G1 X82.074 Y106.981 E6.44391
G1 X82.294 Y106.228 E6.47
G1 X82.511 Y105.571 E6.49301
G1 X82.864 Y104.648 E6.52588
G1 X83.195 Y103.891 E6.55336
G1 X83.613 Y103.039 E6.58492
G1 X83.918 Y102.507 E6.60532
G1 X84.395 Y101.727 E6.63573
G1 X84.885 Y100.996 E6.665
G1 X85.342 Y100.386 E6.69035
G1 X85.542 Y100.135 E6.70102
G1 X85.9 Y99.71 E6.71951
G1 X86.445 Y99.109 E6.74649
G1 X86.995 Y98.553 E6.7725
G1 X87.556 Y98.041 E6.79776
G1 X88.091 Y97.583 E6.82119
G1 X88.89 Y96.962 E6.85485
G1 X89.465 Y96.558 E6.87822
G1 X90.275 Y96.042 E6.91016
G1 X90.828 Y95.724 E6.93138
G1 X91.691 Y95.279 E6.96367
G1 X92.445 Y94.933 E6.99127
G1 X93.279 Y94.592 E7.02123
G1 X94.028 Y94.332 E7.0476
G1 X94.809 Y94.1 E7.0747
G1 X95.576 Y93.908 E7.101
G1 X95.91 Y93.835 E7.11237
G1 X96.496 Y93.724 E7.13221
G1 X99.732 Y93.206 E7.24121
G1 X102.177 Y92.745 E7.32396
G1 X104.663 Y92.203 E7.40859
G1 X107.054 Y91.612 E7.49051
G1 X108.379 Y91.267 E7.53605
G1 X109.279 Y91.074 E7.56666
G1 X110.193 Y90.96 E7.5973
G1 X110.752 Y90.929 E7.61592
G1 X111.37 Y90.916 E7.63648
G1 X117.964 Y90.916 E7.85579
G1 X119.05 Y90.932 E7.89192
G1 X119.834 Y90.972 E7.91803
G1 X120.69 Y91.053 E7.94663
G1 X121.497 Y91.168 E7.97374
G1 X122.228 Y91.305 E7.99847
G1 X122.582 Y91.382 E8.01052
G1 X123.253 Y91.551 E8.03354
G1 X123.699 Y91.679 E8.04897
G1 X124.511 Y91.948 E8.07742
G1 X125.273 Y92.235 E8.1045
G1 X126.127 Y92.6 E8.13539
G1 X126.662 Y92.857 E8.15514
G1 X127.526 Y93.323 E8.18779
G1 X128.211 Y93.734 E8.21435
G1 X128.936 Y94.21 E8.2432
G1 X129.524 Y94.651 E8.26765
G1 X130.194 Y95.188 E8.29621
G1 X130.886 Y95.793 E8.32678
G1 X131.32 Y96.223 E8.3471
G1 X131.937 Y96.871 E8.37686
G1 X132.493 Y97.504 E8.40488
G1 X132.716 Y97.779 E8.41666
G1 X133.12 Y98.31 E8.43885
G1 X133.401 Y98.705 E8.45497
G1 X133.876 Y99.433 E8.48388
G1 X134.263 Y100.084 E8.50907
G1 X134.718 Y100.938 E8.54126
G1 X135.039 Y101.611 E8.56606
G1 X135.373 Y102.389 E8.59422
G1 X135.653 Y103.149 E8.62115
G1 X135.909 Y103.957 E8.64934
G1 X135.999 Y104.279 E8.66047
G1 X136.136 Y104.825 E8.67919
G1 X136.239 Y105.287 E8.69493
G1 X136.397 Y106.168 E8.7247
G1 X136.515 Y107.037 E8.75387
G1 X136.597 Y107.926 E8.78356
G1 X136.624 Y108.566 E8.80487
G1 X136.64 Y109.657 E8.84116
G1 X136.639 Y125.509 E9.3684
G1 X136.622 Y126.37 E9.39704
G1 X136.582 Y127.206 E9.42488
G1 X136.493 Y128.155 E9.45658
G1 X136.383 Y128.948 E9.48321
G1 X136.237 Y129.768 E9.51091
G1 X136.164 Y130.1 E9.52222
G1 X135.965 Y130.873 E9.54877
G1 X135.822 Y131.341 E9.56504
G1 X135.606 Y131.995 E9.58795
G1 X135.251 Y132.922 E9.62097
G1 X134.92 Y133.678 E9.64841
G1 X134.523 Y134.491 E9.67851
G1 X134.201 Y135.055 E9.70011
G1 X133.723 Y135.837 E9.73059
G1 X133.232 Y136.57 E9.75993
G1 X132.778 Y137.176 E9.78512
G1 X132.237 Y137.835 E9.81348
G1 X131.674 Y138.457 E9.84138
G1 X131.125 Y139.011 E9.86732
G1 X130.88 Y139.244 E9.87857
G1 X130.4 Y139.673 E9.89998
G1 X129.996 Y140.013 E9.91754
G1 X129.273 Y140.57 E9.9479
G1 X128.658 Y141.003 E9.97291
G1 X127.842 Y141.524 E10.00512
G1 X127.291 Y141.841 E10.02626
G1 X126.42 Y142.29 E10.05885
G1 X125.667 Y142.635 E10.0864
G1 X124.855 Y142.967 E10.11558
G1 X124.122 Y143.223 E10.1414
G1 X123.819 Y143.319 E10.15197
G1 X123.294 Y143.47 E10.17014
G1 X122.523 Y143.662 E10.19657
G1 X122.191 Y143.734 E10.20787
G1 X121.621 Y143.842 E10.22716
G1 X118.385 Y144.36 E10.33616
G1 X115.94 Y144.821 E10.41892
G1 X113.454 Y145.363 E10.50354
G1 X111.063 Y145.954 E10.58546
G1 X109.738 Y146.299 E10.631
G1 X108.838 Y146.492 E10.66162
G1 X107.924 Y146.606 E10.69225
G1 X107.365 Y146.637 E10.71087
G1 X106.747 Y146.65 E10.73143
G1 X100.028 Y146.649 E10.95491
G1 X99.071 Y146.634 E10.98674
G1 X98.277 Y146.594 E11.01318
G1 X97.432 Y146.514 E11.04141
G1 X96.615 Y146.397 E11.06886
G1 X95.918 Y146.267 E11.09244
G1 X95.564 Y146.191 E11.10449
G1 X94.863 Y146.015 E11.12853
G1 X94.379 Y145.876 E11.14527
G1 X93.546 Y145.599 E11.17447
G1 X92.842 Y145.332 E11.19951
G1 X92.007 Y144.974 E11.22973
G1 X91.429 Y144.696 E11.25106
G1 X90.547 Y144.219 E11.28441
G1 X89.884 Y143.819 E11.31017
G1 X89.166 Y143.345 E11.33878
G1 X88.535 Y142.879 E11.36487
G1 X88.264 Y142.666 E11.37634
G1 X87.839 Y142.314 E11.39469
G1 X87.498 Y142.016 E11.40976
G1 X86.79 Y141.337 E11.44238
G1 X86.174 Y140.689 E11.47212
G1 X85.62 Y140.058 E11.50005
G1 X85.097 Y139.394 E11.52816
G1 X84.649 Y138.769 E11.55374
G1 X84.237 Y138.127 E11.57911
G1 X83.871 Y137.513 E11.60288
G1 X83.417 Y136.667 E11.63482
G1 X83.14 Y136.089 E11.65613
G1 X82.771 Y135.221 E11.6875
G1 X82.486 Y134.459 E11.71456
G1 X82.21 Y133.615 E11.7441
G1 X82.122 Y133.302 E11.75491
G1 X81.975 Y132.716 E11.77501
G1 X81.872 Y132.249 E11.79091
G1 X81.719 Y131.392 E11.81987
G1 X81.602 Y130.53 E11.8488
G1 X81.512 Y129.447 E11.88494
G1 X81.479 Y128.272 E11.92404
G1 X81.478 Y112.057 E12.46335
G0 F6000 X81.878 Y112.062
G1 F1200 X81.895 Y111.216 E12.4915
G1 X81.935 Y110.379 E12.51937
G1 X82.019 Y109.468 E12.5498
G1 X82.129 Y108.673 E12.57649
G1 X82.284 Y107.822 E12.60526
G1 X82.46 Y107.085 E12.63046
G1 X82.674 Y106.353 E12.65583
G1 X82.891 Y105.696 E12.67884
G1 X83.23 Y104.809 E12.71042
G1 X83.561 Y104.052 E12.7379
G1 X83.966 Y103.228 E12.76844
G1 X84.259 Y102.716 E12.78806
G1 X84.736 Y101.936 E12.81847
G1 X85.208 Y101.232 E12.84666
G1 X85.655 Y100.636 E12.87144
G1 X86.199 Y99.975 E12.89991
G1 X86.733 Y99.387 E12.92633
G1 X87.27 Y98.843 E12.95176
G1 X87.816 Y98.344 E12.97636
G1 X88.351 Y97.886 E12.99978
G1 X89.12 Y97.289 E13.03216
G1 X89.695 Y96.885 E13.05553
G1 X90.474 Y96.389 E13.08625
G1 X91.027 Y96.071 E13.10747
G1 X91.858 Y95.642 E13.13857
G1 X92.612 Y95.296 E13.16617
G1 X93.414 Y94.969 E13.19497
G1 X94.148 Y94.714 E13.22082
G1 X94.911 Y94.487 E13.24729
G1 X95.661 Y94.299 E13.27301
G1 X95.995 Y94.226 E13.28438
G1 X96.56 Y94.119 E13.30351
G1 X99.792 Y93.601 E13.41238
G1 X102.264 Y93.135 E13.49604
G1 X104.739 Y92.596 E13.58029
G1 X107.173 Y91.994 E13.66369
G1 X108.48 Y91.654 E13.7086
G1 X109.363 Y91.465 E13.73864
G1 X110.259 Y91.356 E13.76866
G1 X111.083 Y91.32 E13.79609
G1 X117.964 Y91.316 E14.02495
G1 X119.034 Y91.332 E14.06055
G1 X119.802 Y91.37 E14.08612
G1 X120.16 Y91.399 E14.09807
G1 X120.965 Y91.492 E14.12502
G1 X121.74 Y91.617 E14.15113
G1 X122.497 Y91.773 E14.17684
G1 X123.143 Y91.936 E14.199
G1 X123.589 Y92.064 E14.21443
G1 X124.37 Y92.323 E14.2418
G1 X125.132 Y92.61 E14.26888
G1 X125.954 Y92.961 E14.29861
G1 X126.489 Y93.218 E14.31835
G1 X127.32 Y93.666 E14.34975
G1 X128.005 Y94.077 E14.37632
G1 X128.703 Y94.535 E14.40408
G1 X129.274 Y94.963 E14.42782
G1 X129.944 Y95.5 E14.45638
G1 X130.613 Y96.085 E14.48593
G1 X131.03 Y96.498 E14.50546
G1 X131.647 Y97.146 E14.53522
G1 X132.183 Y97.756 E14.56222
G1 X132.406 Y98.031 E14.574
G1 X132.794 Y98.542 E14.59534
G1 X133.075 Y98.937 E14.61146
G1 X133.532 Y99.638 E14.63929
G1 X133.919 Y100.289 E14.66448
G1 X134.357 Y101.11 E14.69543
G1 X134.678 Y101.783 E14.72023
G1 X135 Y102.532 E14.74735
G1 X135.274 Y103.275 E14.77369
G1 X135.377 Y103.584 E14.78452
G1 X135.613 Y104.386 E14.81233
G1 X135.746 Y104.912 E14.83037
G1 X135.849 Y105.374 E14.84612
G1 X136 Y106.222 E14.87476
G1 X136.118 Y107.091 E14.90393
G1 X136.198 Y107.946 E14.93249
G1 X136.224 Y108.572 E14.95333
G1 X136.24 Y109.657 E14.98942
G1 X136.239 Y125.504 E15.5165
G1 X136.222 Y126.35 E15.54464
G1 X136.182 Y127.186 E15.57248
G1 X136.097 Y128.1 E15.60301
G1 X135.987 Y128.893 E15.62964
G1 X135.846 Y129.682 E15.6563
G1 X135.773 Y130.014 E15.6676
G1 X135.58 Y130.765 E15.69339
G1 X135.442 Y131.216 E15.70908
G1 X135.226 Y131.87 E15.73199
G1 X134.885 Y132.762 E15.76375
G1 X134.554 Y133.518 E15.7912
G1 X134.169 Y134.304 E15.82031
G1 X133.86 Y134.847 E15.84109
G1 X133.382 Y135.629 E15.87157
G1 X132.909 Y136.334 E15.89981
G1 X132.465 Y136.927 E15.92445
G1 X131.936 Y137.571 E15.95217
G1 X131.386 Y138.179 E15.97944
G1 X130.849 Y138.721 E16.00481
G1 X130.604 Y138.954 E16.01606
G1 X130.143 Y139.367 E16.03664
G1 X129.739 Y139.707 E16.05421
G1 X129.043 Y140.243 E16.08342
G1 X128.428 Y140.676 E16.10844
G1 X127.643 Y141.177 E16.13941
G1 X127.092 Y141.494 E16.16056
G1 X126.254 Y141.926 E16.19191
G1 X125.501 Y142.271 E16.21946
G1 X124.719 Y142.591 E16.24757
G1 X124.001 Y142.842 E16.27286
G1 X123.698 Y142.938 E16.28343
G1 X123.193 Y143.083 E16.30091
G1 X122.438 Y143.271 E16.32679
G1 X122.106 Y143.343 E16.33809
G1 X121.557 Y143.447 E16.35667
G1 X118.325 Y143.965 E16.46554
G1 X115.853 Y144.431 E16.54921
G1 X113.378 Y144.97 E16.63346
G1 X110.944 Y145.572 E16.71685
G1 X109.637 Y145.912 E16.76177
G1 X108.754 Y146.101 E16.7918
G1 X107.858 Y146.21 E16.82182
G1 X107.034 Y146.246 E16.84926
G1 X100.032 Y146.249 E17.08214
G1 X99.086 Y146.235 E17.11361
G1 X98.31 Y146.195 E17.13945
G1 X97.483 Y146.117 E17.16708
G1 X96.684 Y146.003 E17.19393
G1 X96.002 Y145.876 E17.217
G1 X95.648 Y145.8 E17.22904
G1 X94.973 Y145.631 E17.25219
G1 X94.489 Y145.492 E17.26893
G1 X93.688 Y145.225 E17.29702
G1 X92.984 Y144.958 E17.32206
G1 X92.18 Y144.613 E17.35116
G1 X91.602 Y144.335 E17.37249
G1 X90.754 Y143.877 E17.40455
G1 X90.091 Y143.477 E17.4303
G1 X89.4 Y143.021 E17.45784
G1 X88.782 Y142.564 E17.4834
G1 X88.511 Y142.351 E17.49487
G1 X88.102 Y142.012 E17.51253
G1 X87.761 Y141.714 E17.5276
G1 X87.08 Y141.062 E17.55895
G1 X86.464 Y140.414 E17.58869
G1 X85.931 Y139.806 E17.61558
G1 X85.419 Y139.156 E17.6431
G1 X84.981 Y138.546 E17.66808
G1 X84.58 Y137.923 E17.69272
G1 X84.214 Y137.309 E17.7165
G1 X83.778 Y136.494 E17.74724
G1 X83.501 Y135.916 E17.76856
G1 X83.145 Y135.081 E17.79875
G1 X82.86 Y134.319 E17.82581
G1 X82.595 Y133.507 E17.85422
G1 X82.507 Y133.194 E17.86503
G1 X82.365 Y132.63 E17.88438
G1 X82.262 Y132.163 E17.90028
G1 X82.116 Y131.338 E17.92815
G1 X81.999 Y130.476 E17.95708
G1 X81.911 Y129.434 E17.99186
G1 X81.879 Y128.272 E18.03052
G1 X81.878 Y112.062 E18.56967
G1 F2700 E13.56967
;MESH:camhold.stl
G0 F6000 X96.661 Y113.358
G0 X98.055 Y114.365
G0 X98.799 Y114.63
G0 X99.737 Y114.807
G1 F2700 E18.56967
G0 F6000 X99.706 Y114.397
;TYPE:WALL-OUTER
G1 F1200 X99.343 Y114.386 E18.58175
G1 X98.843 Y114.303 E18.59861
G1 X98.425 Y114.156 E18.61334
G1 X98.045 Y113.952 E18.62769
G1 X97.696 Y113.691 E18.64218
G1 X97.39 Y113.38 E18.6567
G1 X97.136 Y113.023 E18.67127
G1 X96.943 Y112.636 E18.68565
