;FLAVOR:Marlin
;TIME:2847
;Filament used: 1.43113m
;Layer height: 0.16
;MINX:95.581
;MINY:88.582
;MINZ:0.2
;MAXX:139.419
;MAXY:132.418
;MAXZ:13.96
;Generated with Cura_SteamEngine 5.0.0
M140 S50
M105
M190 S50
M104 S200
M105
M109 S200
M82 ;absolute extrusion mode
; Ender 3 Custom Start G-code
G92 E0 ; Reset Extruder
G28 ; Home all axes
G1 Z2.0 F3000 ; Move Z Axis up little to prevent scratching of Heat Bed
G1 X0.1 Y20 Z0.3 F5000.0 ; Move to start position
G1 X0.1 Y200.0 Z0.3 F1500.0 E15 ; Draw the first line
G1 X0.4 Y200.0 Z0.3 F5000.0 ; Move to side a little
G1 X0.4 Y20 Z0.3 F1500.0 E30 ; Draw the second line
G92 E0 ; Reset Extruder
G1 Z2.0 F3000 ; Move Z Axis up little to prevent scratching of Heat Bed
G1 X5 Y20 Z0.3 F5000.0 ; Move over to prevent blob squish
G92 E0
G92 E0
G1 F2700 E-7.5
;LAYER_COUNT:87
;LAYER:0
M107
G0 F6000 X101.51 Y95.507 Z0.2
G0 X95.581 Y110.624
;TYPE:SKIRT
G1 F2700 E0
G1 F1200 X95.589 Y109.88 E0.0297
G1 X95.624 Y109.119 E0.0601
G1 X95.685 Y108.359 E0.09053
G1 X95.773 Y107.6 E0.12103
G1 X95.884 Y106.864 E0.15074
G1 X96.017 Y106.14 E0.18012
G1 X96.194 Y105.352 E0.21235
G1 X96.377 Y104.645 E0.2415
G1 X96.591 Y103.923 E0.27155
G1 X96.833 Y103.199 E0.30202
G1 X97.089 Y102.508 E0.33143
G1 X97.389 Y101.783 E0.36275
G1 X97.69 Y101.118 E0.39188
G1 X98.046 Y100.402 E0.4238
G1 X98.387 Y99.77 E0.45246
G1 X98.772 Y99.111 E0.48292
G1 X99.174 Y98.474 E0.51298
G1 X99.602 Y97.846 E0.54332
G1 X100.048 Y97.237 E0.57344
G1 X100.535 Y96.621 E0.60479
G1 X101.001 Y96.07 E0.63359
G1 X101.51 Y95.507 E0.66388
G1 X102.041 Y94.96 E0.69431
G1 X102.598 Y94.426 E0.7251
G1 X103.147 Y93.933 E0.75455
G1 X103.735 Y93.442 E0.78513
G1 X104.342 Y92.97 E0.81582
G1 X104.937 Y92.539 E0.84514
G1 X105.577 Y92.108 E0.87594
G1 X106.211 Y91.712 E0.90577
G1 X106.862 Y91.335 E0.9358
G1 X107.542 Y90.974 E0.96653
G1 X108.206 Y90.649 E0.99603
G1 X108.922 Y90.33 E1.02732
G1 X109.6 Y90.054 E1.05653
G1 X110.304 Y89.795 E1.08647
G1 X111.044 Y89.553 E1.11755
G1 X111.783 Y89.34 E1.14824
G1 X112.489 Y89.162 E1.1773
G1 X113.237 Y89 E1.20785
G1 X113.982 Y88.865 E1.23807
G1 X114.735 Y88.756 E1.26843
G1 X115.48 Y88.674 E1.29835
G1 X116.242 Y88.617 E1.32885
G1 X116.985 Y88.587 E1.35853
G1 X117.747 Y88.582 E1.38894
G1 X118.509 Y88.604 E1.41937
G1 X119.254 Y88.651 E1.44916
G1 X120.027 Y88.727 E1.48016
G1 X120.771 Y88.827 E1.51012
G1 X121.508 Y88.951 E1.53995
G1 X122.241 Y89.099 E1.5698
G1 X122.995 Y89.281 E1.60075
G1 X123.721 Y89.482 E1.63082
G1 X124.436 Y89.707 E1.66074
G1 X125.16 Y89.963 E1.69139
G1 X125.851 Y90.234 E1.72101
G1 X126.543 Y90.533 E1.7511
G1 X127.246 Y90.867 E1.78216
G1 X127.909 Y91.211 E1.81197
G1 X128.561 Y91.576 E1.8418
G1 X129.225 Y91.981 E1.87284
G1 X129.825 Y92.374 E1.90147
G1 X130.475 Y92.834 E1.93325
G1 X131.066 Y93.283 E1.96287
G1 X131.656 Y93.766 E1.9933
G1 X132.222 Y94.261 E2.02332
G1 X132.76 Y94.765 E2.05274
G1 X133.313 Y95.321 E2.08404
G1 X133.816 Y95.862 E2.11352
G1 X134.329 Y96.457 E2.14488
G1 X134.786 Y97.022 E2.17388
G1 X135.246 Y97.634 E2.20444
G1 X135.69 Y98.272 E2.23546
G1 X136.08 Y98.872 E2.26402
G1 X136.49 Y99.556 E2.29585
G1 X136.846 Y100.197 E2.32511
G1 X137.184 Y100.857 E2.35471
G1 X137.516 Y101.567 E2.38599
G1 X137.809 Y102.254 E2.4158
G1 X138.08 Y102.956 E2.44584
G1 X138.333 Y103.686 E2.47667
G1 X138.556 Y104.411 E2.50695
G1 X138.751 Y105.133 E2.53679
G1 X138.921 Y105.853 E2.56632
G1 X139.07 Y106.604 E2.59688
G1 X139.194 Y107.37 E2.62785
G1 X139.288 Y108.109 E2.65758
G1 X139.357 Y108.851 E2.68733
G1 X139.401 Y109.612 E2.71775
G1 X139.419 Y110.375 E2.74821
G1 X139.411 Y111.119 E2.77791
G1 X139.376 Y111.881 E2.80835
G1 X139.315 Y112.642 E2.83882
G1 X139.227 Y113.399 E2.86924
G1 X139.115 Y114.14 E2.89915
G1 X138.979 Y114.875 E2.92898
G1 X138.816 Y115.611 E2.95907
G1 X138.619 Y116.371 E2.99041
G1 X138.408 Y117.082 E3.02001
G1 X138.169 Y117.797 E3.0501
G1 X137.913 Y118.487 E3.07947
G1 X137.612 Y119.216 E3.11095
G1 X137.304 Y119.895 E3.14071
G1 X136.96 Y120.586 E3.17152
G1 X136.617 Y121.224 E3.20043
G1 X136.225 Y121.894 E3.23141
G1 X135.829 Y122.522 E3.26104
G1 X135.396 Y123.158 E3.29175
G1 X134.94 Y123.778 E3.32247
G1 X134.469 Y124.374 E3.35279
G1 X133.993 Y124.936 E3.38218
G1 X133.488 Y125.494 E3.41222
G1 X132.959 Y126.039 E3.44253
G1 X132.41 Y126.567 E3.47293
G1 X131.843 Y127.075 E3.50332
G1 X131.274 Y127.551 E3.53293
G1 X130.656 Y128.032 E3.56418
G1 X130.065 Y128.46 E3.59331
G1 X129.419 Y128.894 E3.62437
G1 X128.798 Y129.283 E3.65361
G1 X128.127 Y129.671 E3.68455
G1 X127.465 Y130.023 E3.71448
G1 X126.794 Y130.351 E3.74429
G1 X126.085 Y130.668 E3.77528
G1 X125.392 Y130.949 E3.80513
G1 X124.696 Y131.205 E3.83473
G1 X123.965 Y131.445 E3.86544
G1 X123.211 Y131.662 E3.89675
G1 X122.496 Y131.841 E3.92617
G1 X121.771 Y131.998 E3.95578
G1 X121.017 Y132.135 E3.98636
G1 X120.268 Y132.243 E4.01657
G1 X119.517 Y132.326 E4.04672
G1 X118.761 Y132.382 E4.07698
G1 X118.015 Y132.413 E4.10678
G1 X117.252 Y132.418 E4.13723
G1 X116.49 Y132.396 E4.16766
G1 X115.746 Y132.35 E4.19741
G1 X114.97 Y132.273 E4.22853
G1 X114.231 Y132.174 E4.25829
G1 X113.49 Y132.049 E4.28828
G1 X112.76 Y131.901 E4.31801
G1 X112.011 Y131.721 E4.34876
G1 X111.278 Y131.518 E4.37912
G1 X110.555 Y131.29 E4.40937
G1 X109.845 Y131.039 E4.43943
G1 X109.149 Y130.766 E4.46927
G1 X108.462 Y130.47 E4.49912
G1 X107.748 Y130.13 E4.53069
G1 X107.091 Y129.789 E4.56023
G1 X106.433 Y129.42 E4.59034
G1 X105.792 Y129.031 E4.62027
G1 X105.165 Y128.62 E4.65019
G1 X104.522 Y128.164 E4.68165
G1 X103.934 Y127.717 E4.71113
G1 X103.344 Y127.234 E4.74156
G1 X102.771 Y126.732 E4.77197
G1 X102.248 Y126.243 E4.80055
G1 X101.679 Y125.669 E4.8328
G1 X101.192 Y125.146 E4.86133
G1 X100.664 Y124.534 E4.89359
G1 X100.221 Y123.986 E4.92171
G1 X99.754 Y123.366 E4.95269
G1 X99.316 Y122.739 E4.98322
G1 X98.919 Y122.128 E5.0123
G1 X98.509 Y121.444 E5.04413
G1 X98.153 Y120.803 E5.07339
G1 X97.807 Y120.124 E5.10381
G1 X97.484 Y119.433 E5.13425
G1 X97.196 Y118.759 E5.16351
G1 X96.919 Y118.043 E5.19415
G1 X96.664 Y117.304 E5.22535
G1 X96.444 Y116.589 E5.25521
G1 X96.25 Y115.872 E5.28485
G1 X96.078 Y115.143 E5.31475
G1 X95.929 Y114.392 E5.34531
G1 X95.806 Y113.629 E5.37615
G1 X95.712 Y112.893 E5.40577
G1 X95.643 Y112.149 E5.43559
G1 X95.599 Y111.398 E5.46561
G1 X95.581 Y110.624 E5.49651
G0 F6000 X96.061 Y110.616
G1 F1200 X96.069 Y109.888 E5.52557
G1 X96.103 Y109.144 E5.5553
G1 X96.163 Y108.401 E5.58505
G1 X96.25 Y107.658 E5.61491
G1 X96.359 Y106.938 E5.64397
G1 X96.489 Y106.229 E5.67274
G1 X96.661 Y105.461 E5.70415
G1 X96.841 Y104.769 E5.73269
G1 X97.05 Y104.062 E5.76212
G1 X97.287 Y103.354 E5.79191
G1 X97.538 Y102.677 E5.82073
G1 X97.831 Y101.969 E5.85131
G1 X98.126 Y101.318 E5.87984
G1 X98.474 Y100.62 E5.91097
G1 X98.809 Y100 E5.9391
G1 X99.185 Y99.356 E5.96886
G1 X99.579 Y98.733 E5.99828
G1 X99.997 Y98.119 E6.02793
G1 X100.434 Y97.523 E6.05742
G1 X100.909 Y96.922 E6.088
G1 X101.366 Y96.381 E6.11626
G1 X101.864 Y95.831 E6.14588
G1 X102.383 Y95.296 E6.17563
G1 X102.928 Y94.774 E6.20575
G1 X103.466 Y94.292 E6.23458
G1 X104.04 Y93.812 E6.26444
G1 X104.634 Y93.351 E6.29445
G1 X105.216 Y92.929 E6.32314
G1 X105.842 Y92.508 E6.35325
G1 X106.463 Y92.121 E6.38246
G1 X107.1 Y91.752 E6.41184
G1 X107.764 Y91.399 E6.44185
G1 X108.414 Y91.081 E6.47073
G1 X109.114 Y90.77 E6.50131
G1 X109.778 Y90.5 E6.52991
G1 X110.467 Y90.247 E6.55921
G1 X111.19 Y90.01 E6.58958
G1 X111.913 Y89.803 E6.61959
G1 X112.605 Y89.628 E6.64808
G1 X113.336 Y89.469 E6.67794
G1 X114.065 Y89.338 E6.7075
G1 X114.8 Y89.232 E6.73714
G1 X115.53 Y89.152 E6.76645
G1 X116.275 Y89.096 E6.79627
G1 X117.002 Y89.067 E6.82531
G1 X117.747 Y89.062 E6.85504
G1 X118.492 Y89.084 E6.88479
G1 X119.221 Y89.129 E6.91394
G1 X119.977 Y89.204 E6.94426
G1 X120.705 Y89.302 E6.97358
G1 X121.426 Y89.424 E7.00277
G1 X122.143 Y89.569 E7.03196
G1 X122.88 Y89.747 E7.06222
G1 X123.59 Y89.944 E7.09163
G1 X124.289 Y90.164 E7.12088
G1 X124.997 Y90.415 E7.15086
G1 X125.673 Y90.68 E7.17984
G1 X126.35 Y90.972 E7.20927
G1 X127.037 Y91.299 E7.23964
G1 X127.686 Y91.636 E7.26882
G1 X128.324 Y91.994 E7.29802
G1 X128.972 Y92.389 E7.32831
G1 X129.56 Y92.774 E7.35636
G1 X130.195 Y93.223 E7.3874
G1 X130.773 Y93.664 E7.41642
G1 X131.35 Y94.135 E7.44615
G1 X131.903 Y94.62 E7.4755
G1 X132.431 Y95.114 E7.50436
G1 X132.971 Y95.657 E7.53493
G1 X133.462 Y96.187 E7.56376
G1 X133.963 Y96.768 E7.59438
G1 X134.411 Y97.322 E7.62282
G1 X134.86 Y97.92 E7.65267
G1 X135.294 Y98.544 E7.683
G1 X135.677 Y99.132 E7.71101
G1 X136.077 Y99.799 E7.74205
G1 X136.425 Y100.428 E7.77074
G1 X136.756 Y101.074 E7.79971
G1 X137.08 Y101.767 E7.83025
G1 X137.366 Y102.439 E7.8594
G1 X137.632 Y103.126 E7.8888
G1 X137.878 Y103.84 E7.91894
G1 X138.096 Y104.549 E7.94855
G1 X138.287 Y105.255 E7.97774
G1 X138.453 Y105.961 E8.00668
G1 X138.599 Y106.694 E8.03651
G1 X138.72 Y107.443 E8.06679
G1 X138.811 Y108.166 E8.09588
G1 X138.879 Y108.893 E8.12502
G1 X138.922 Y109.637 E8.15477
G1 X138.939 Y110.383 E8.18455
G1 X138.931 Y111.111 E8.21361
G1 X138.897 Y111.856 E8.24337
G1 X138.837 Y112.6 E8.27316
G1 X138.75 Y113.341 E8.30294
G1 X138.641 Y114.066 E8.3322
G1 X138.507 Y114.785 E8.36139
G1 X138.348 Y115.504 E8.39078
G1 X138.155 Y116.247 E8.42142
G1 X137.948 Y116.943 E8.4504
G1 X137.715 Y117.642 E8.47981
G1 X137.464 Y118.318 E8.50859
G1 X137.17 Y119.03 E8.53934
G1 X136.868 Y119.694 E8.56845
G1 X136.532 Y120.369 E8.59854
G1 X136.195 Y120.994 E8.62688
G1 X135.812 Y121.649 E8.65717
G1 X135.425 Y122.263 E8.68614
G1 X135.001 Y122.885 E8.71618
G1 X134.555 Y123.491 E8.74621
G1 X134.094 Y124.073 E8.77584
G1 X133.628 Y124.624 E8.80465
G1 X133.134 Y125.169 E8.83401
G1 X132.617 Y125.702 E8.86364
G1 X132.08 Y126.218 E8.89337
G1 X131.525 Y126.715 E8.9231
G1 X130.968 Y127.181 E8.95209
G1 X130.364 Y127.65 E8.98261
G1 X129.785 Y128.07 E9.01116
G1 X129.154 Y128.494 E9.0415
G1 X128.545 Y128.875 E9.07017
G1 X127.89 Y129.253 E9.10035
G1 X127.242 Y129.598 E9.12965
G1 X126.586 Y129.919 E9.1588
G1 X125.893 Y130.228 E9.18909
G1 X125.214 Y130.503 E9.21832
G1 X124.533 Y130.753 E9.24728
G1 X123.818 Y130.988 E9.27732
G1 X123.082 Y131.199 E9.30788
G1 X122.382 Y131.375 E9.33668
G1 X121.672 Y131.529 E9.36568
G1 X120.934 Y131.662 E9.39561
G1 X120.202 Y131.768 E9.42513
G1 X119.468 Y131.848 E9.4546
G1 X118.728 Y131.904 E9.48422
G1 X117.998 Y131.933 E9.51338
G1 X117.252 Y131.938 E9.54315
G1 X116.507 Y131.916 E9.5729
G1 X115.779 Y131.871 E9.60201
G1 X115.021 Y131.795 E9.63242
G1 X114.297 Y131.698 E9.66157
G1 X113.572 Y131.576 E9.69092
G1 X112.858 Y131.431 E9.71999
G1 X112.126 Y131.255 E9.75004
G1 X111.409 Y131.056 E9.77974
G1 X110.703 Y130.833 E9.80929
G1 X110.008 Y130.587 E9.83872
G1 X109.327 Y130.32 E9.86791
G1 X108.654 Y130.03 E9.89716
G1 X107.957 Y129.698 E9.92797
G1 X107.314 Y129.364 E9.95689
G1 X106.67 Y129.003 E9.98636
G1 X106.044 Y128.622 E10.01561
G1 X105.43 Y128.22 E10.0449
G1 X104.802 Y127.775 E10.07562
G1 X104.227 Y127.336 E10.10449
G1 X103.65 Y126.865 E10.13422
G1 X103.09 Y126.373 E10.16397
G1 X102.577 Y125.893 E10.19201
G1 X102.022 Y125.334 E10.22345
G1 X101.545 Y124.821 E10.25141
G1 X101.03 Y124.224 E10.28288
G1 X100.595 Y123.685 E10.31052
G1 X100.14 Y123.08 E10.34074
G1 X99.712 Y122.467 E10.37058
G1 X99.322 Y121.868 E10.3991
G1 X98.922 Y121.201 E10.43015
G1 X98.574 Y120.572 E10.45884
G1 X98.236 Y119.909 E10.48854
G1 X97.92 Y119.233 E10.51832
G1 X97.638 Y118.573 E10.54697
G1 X97.367 Y117.873 E10.57693
G1 X97.119 Y117.151 E10.6074
G1 X96.904 Y116.451 E10.63662
G1 X96.714 Y115.75 E10.66561
G1 X96.546 Y115.036 E10.69489
G1 X96.4 Y114.302 E10.72475
G1 X96.28 Y113.556 E10.75491
G1 X96.189 Y112.835 E10.78392
G1 X96.121 Y112.107 E10.8131
G1 X96.078 Y111.372 E10.84249
G1 X96.061 Y110.616 E10.87267
G0 F6000 X96.541 Y110.379
G1 F1200 X96.557 Y109.65 E10.90177
G1 X96.599 Y108.925 E10.93075
G1 X96.667 Y108.196 E10.95998
G1 X96.758 Y107.491 E10.98835
G1 X96.871 Y106.793 E11.01657
G1 X97.02 Y106.038 E11.04728
G1 X97.181 Y105.359 E11.07514
G1 X97.37 Y104.664 E11.10388
G1 X97.585 Y103.967 E11.13299
G1 X97.816 Y103.3 E11.16117
G1 X98.086 Y102.602 E11.19104
G1 X98.361 Y101.956 E11.21906
G1 X98.683 Y101.268 E11.24938
G1 X98.998 Y100.655 E11.27689
G1 X99.352 Y100.016 E11.30604
G1 X99.722 Y99.399 E11.33476
G1 X100.118 Y98.789 E11.36378
G1 X100.531 Y98.197 E11.39259
G1 X100.982 Y97.599 E11.42249
G1 X101.416 Y97.062 E11.45004
G1 X101.892 Y96.512 E11.47908
G1 X102.387 Y95.978 E11.50814
G1 X102.908 Y95.454 E11.53763
G1 X103.421 Y94.973 E11.5657
G1 X103.974 Y94.489 E11.59503
G1 X104.541 Y94.027 E11.62422
G1 X105.104 Y93.6 E11.65242
G1 X105.704 Y93.176 E11.68174
G1 X106.302 Y92.783 E11.7103
G1 X106.919 Y92.408 E11.73912
G1 X107.559 Y92.048 E11.76843
G1 X108.188 Y91.723 E11.79669
G1 X108.864 Y91.403 E11.82654
G1 X109.506 Y91.126 E11.85445
G1 X110.176 Y90.862 E11.88319
G1 X110.876 Y90.614 E11.91283
G1 X111.575 Y90.396 E11.94205
G1 X112.251 Y90.21 E11.97003
G1 X112.962 Y90.038 E11.99923
G1 X113.67 Y89.894 E12.02807
G1 X114.388 Y89.773 E12.05713
G1 X115.098 Y89.679 E12.08571
G1 X115.825 Y89.608 E12.11487
G1 X116.537 Y89.563 E12.14334
G1 X117.264 Y89.542 E12.17237
G1 X117.747 Y89.542 E12.19165
G1 X118.475 Y89.563 E12.22072
G1 X119.188 Y89.608 E12.24923
G1 X119.926 Y89.682 E12.27883
G1 X120.638 Y89.777 E12.3075
G1 X121.344 Y89.896 E12.33608
G1 X122.045 Y90.039 E12.36463
G1 X122.764 Y90.212 E12.39415
G1 X123.681 Y90.473 E12.4322
G1 X124.38 Y90.702 E12.46156
G1 X125.046 Y90.947 E12.48988
G1 X125.715 Y91.218 E12.51869
G1 X126.392 Y91.52 E12.54828
G1 X127.035 Y91.835 E12.57685
G1 X127.666 Y92.172 E12.60541
G1 X128.309 Y92.543 E12.63503
G1 X128.891 Y92.907 E12.66243
G1 X129.522 Y93.331 E12.69277
G1 X130.097 Y93.749 E12.72115
G1 X130.672 Y94.197 E12.75024
G1 X131.223 Y94.658 E12.77891
G1 X131.75 Y95.131 E12.80718
G1 X132.29 Y95.648 E12.83702
G1 X132.782 Y96.156 E12.86524
G1 X133.285 Y96.711 E12.89514
G1 X133.734 Y97.244 E12.92295
G1 X134.187 Y97.818 E12.95214
G1 X134.626 Y98.417 E12.98178
G1 X135.011 Y98.985 E13.00916
G1 X135.418 Y99.627 E13.0395
G1 X135.772 Y100.234 E13.06755
G1 X136.109 Y100.858 E13.09585
G1 X136.443 Y101.529 E13.12577
G1 X136.737 Y102.181 E13.15431
G1 X137.011 Y102.843 E13.18291
G1 X137.269 Y103.536 E13.21242
G1 X137.497 Y104.224 E13.24135
G1 X137.699 Y104.909 E13.26986
G1 X137.877 Y105.598 E13.29826
G1 X138.037 Y106.312 E13.32746
G1 X138.171 Y107.037 E13.35689
G1 X138.277 Y107.744 E13.38542
G1 X138.359 Y108.454 E13.41395
G1 X138.418 Y109.179 E13.44298
G1 X138.451 Y109.907 E13.47207
G1 X138.459 Y110.622 E13.50061
G1 X138.443 Y111.347 E13.52955
G1 X138.401 Y112.077 E13.55873
G1 X138.333 Y112.802 E13.5878
G1 X138.242 Y113.514 E13.61644
G1 X138.127 Y114.22 E13.64499
G1 X137.987 Y114.927 E13.67376
G1 X137.816 Y115.656 E13.70365
G1 X137.629 Y116.341 E13.73199
G1 X137.416 Y117.029 E13.76073
G1 X137.185 Y117.698 E13.78898
G1 X136.915 Y118.397 E13.81889
G1 X136.634 Y119.055 E13.84744
G1 X136.323 Y119.719 E13.87671
G1 X136.005 Y120.341 E13.90459
G1 X135.647 Y120.988 E13.9341
G1 X135.28 Y121.598 E13.96252
G1 X134.881 Y122.214 E13.99181
G1 X134.458 Y122.818 E14.02124
G1 X134.023 Y123.395 E14.05008
G1 X133.577 Y123.945 E14.07834
G1 X133.107 Y124.488 E14.10701
G1 X132.613 Y125.022 E14.13604
G1 X132.1 Y125.537 E14.16505
G1 X131.57 Y126.035 E14.19408
G1 X131.033 Y126.504 E14.22253
G1 X130.456 Y126.975 E14.25226
G1 X129.899 Y127.398 E14.28018
G1 X129.292 Y127.827 E14.30984
G1 X128.704 Y128.213 E14.33792
G1 X128.072 Y128.598 E14.36745
G1 X127.448 Y128.948 E14.39601
G1 X126.812 Y129.277 E14.42459
G1 X126.143 Y129.594 E14.45414
G1 X125.485 Y129.878 E14.48274
G1 X124.824 Y130.138 E14.51109
G1 X124.132 Y130.383 E14.54039
G1 X123.418 Y130.607 E14.57025
G1 X122.737 Y130.794 E14.59844
G1 X122.047 Y130.959 E14.62676
G1 X121.329 Y131.106 E14.65601
G1 X120.613 Y131.226 E14.68498
G1 X119.9 Y131.321 E14.71369
G1 X119.176 Y131.392 E14.74273
G1 X118.464 Y131.437 E14.7712
G1 X117.736 Y131.458 E14.80027
G1 X117.007 Y131.454 E14.82937
G1 X116.294 Y131.425 E14.85785
G1 X115.552 Y131.369 E14.88755
G1 X114.843 Y131.29 E14.91602
G1 X114.13 Y131.186 E14.94478
G1 X113.43 Y131.06 E14.97317
G1 X112.711 Y130.905 E15.00252
G1 X112.005 Y130.726 E15.03159
G1 X111.309 Y130.524 E15.06052
