;FLAVOR:Marlin
;TIME:4102
;Filament used: 2.34115m
;Layer height: 0.2
;MINX:98
;MINY:94.258
;MINZ:0.2
;MAXX:137
;MAXY:166.758
;MAXZ:14
;Generated with Cura_SteamEngine 5.0.0
M140 S50
M105
M190 S50
M104 S200
M105
M109 S200
M82 ;absolute extrusion mode
; Ender 3 Custom Start G-code
G92 E0 ; Reset Extruder
G28 ; Home all axes
G1 Z2.0 F3000 ; Move Z Axis up little to prevent scratching of Heat Bed
G1 X0.1 Y20 Z0.3 F5000.0 ; Move to start position
G1 X0.1 Y200.0 Z0.3 F1500.0 E15 ; Draw the first line
G1 X0.4 Y200.0 Z0.3 F5000.0 ; Move to side a little
G1 X0.4 Y20 Z0.3 F1500.0 E30 ; Draw the second line
G92 E0 ; Reset Extruder
G1 Z2.0 F3000 ; Move Z Axis up little to prevent scratching of Heat Bed
G1 X5 Y20 Z0.3 F5000.0 ; Move over to prevent blob squish
G92 E0
G92 E0
G1 F2700 E-5
;LAYER_COUNT:70
;LAYER:0
M107
G0 F6000 X101.198 Y97.522 Z0.2
G0 X98.001 Y105.783
;TYPE:SKIRT
G1 F2700 E0
G1 F1200 X98.01 Y105.118 E0.02212
G1 X98.063 Y104.182 E0.0533
G1 X98.195 Y103.253 E0.08451
G1 X98.406 Y102.339 E0.11571
G1 X98.694 Y101.447 E0.14689
G1 X99.057 Y100.582 E0.17809
G1 X99.492 Y99.751 E0.20928
G1 X99.996 Y98.961 E0.24045
G1 X100.566 Y98.216 E0.27165
G1 X101.198 Y97.522 E0.30287
G1 X101.886 Y96.885 E0.33405
G1 X102.626 Y96.309 E0.36524
G1 X103.412 Y95.797 E0.39644
G1 X104.239 Y95.355 E0.42763
G1 X105.101 Y94.985 E0.45883
G1 X105.991 Y94.689 E0.49003
G1 X106.903 Y94.471 E0.52122
G1 X107.83 Y94.33 E0.5524
G1 X108.701 Y94.271 E0.58144
G1 X109.33 Y94.258 E0.60236
G1 X125.293 Y94.258 E1.1333
G1 X126.149 Y94.269 E1.16177
G1 X127.085 Y94.323 E1.19295
G1 X128.013 Y94.455 E1.22413
G1 X128.927 Y94.667 E1.25533
G1 X129.819 Y94.956 E1.28652
G1 X130.684 Y95.319 E1.31772
G1 X131.514 Y95.755 E1.3489
G1 X132.305 Y96.26 E1.38012
G1 X133.049 Y96.831 E1.41131
G1 X133.742 Y97.463 E1.44251
G1 X134.379 Y98.151 E1.47369
G1 X134.954 Y98.892 E1.50489
G1 X135.465 Y99.678 E1.53607
G1 X135.907 Y100.506 E1.56729
G1 X136.276 Y101.368 E1.59847
G1 X136.571 Y102.258 E1.62966
G1 X136.789 Y103.17 E1.66085
G1 X136.929 Y104.098 E1.69206
G1 X136.987 Y104.959 E1.72076
G1 X137 Y105.588 E1.74169
G1 X136.999 Y155.158 E3.39039
G1 X136.99 Y155.885 E3.41457
G1 X136.939 Y156.822 E3.44578
G1 X136.807 Y157.75 E3.47696
G1 X136.598 Y158.664 E3.50815
G1 X136.311 Y159.557 E3.53934
G1 X135.949 Y160.423 E3.57056
G1 X135.515 Y161.254 E3.60174
G1 X135.011 Y162.045 E3.63294
G1 X134.442 Y162.79 E3.66412
G1 X133.811 Y163.485 E3.69534
G1 X133.124 Y164.123 E3.72652
G1 X132.385 Y164.7 E3.75771
G1 X131.599 Y165.212 E3.78891
G1 X130.773 Y165.655 E3.82008
G1 X129.911 Y166.027 E3.85131
G1 X129.022 Y166.323 E3.88247
G1 X128.11 Y166.543 E3.91367
G1 X127.183 Y166.684 E3.94486
G1 X126.299 Y166.745 E3.97433
G1 X125.67 Y166.758 E3.99526
G1 X109.565 Y166.757 E4.53091
G1 X108.867 Y166.748 E4.55413
G1 X107.931 Y166.696 E4.58531
G1 X107.002 Y166.564 E4.61652
G1 X106.088 Y166.354 E4.64771
G1 X105.195 Y166.067 E4.67891
G1 X104.33 Y165.704 E4.71011
G1 X103.499 Y165.27 E4.74129
G1 X102.708 Y164.766 E4.77249
G1 X101.963 Y164.196 E4.80368
G1 X101.269 Y163.565 E4.83488
G1 X100.632 Y162.878 E4.86604
G1 X100.055 Y162.138 E4.89725
G1 X99.543 Y161.352 E4.92845
G1 X99.1 Y160.525 E4.95966
G1 X98.729 Y159.664 E4.99084
G1 X98.433 Y158.774 E5.02203
G1 X98.214 Y157.862 E5.05323
G1 X98.073 Y156.935 E5.08442
G1 X98.013 Y156.046 E5.11405
G1 X98 Y155.416 E5.13501
G1 X98.001 Y105.783 E6.78581
G0 F6000 X98.401 Y105.789
G1 F1200 X98.41 Y105.124 E6.80793
G1 X98.462 Y104.204 E6.83858
G1 X98.594 Y103.293 E6.8692
G1 X98.805 Y102.397 E6.89981
G1 X99.092 Y101.522 E6.93044
G1 X99.455 Y100.676 E6.96106
G1 X99.889 Y99.864 E6.99168
G1 X100.392 Y99.093 E7.0223
G1 X100.961 Y98.369 E7.05293
G1 X101.589 Y97.697 E7.08352
G1 X102.274 Y97.081 E7.11416
G1 X103.01 Y96.528 E7.14478
G1 X103.791 Y96.04 E7.17541
G1 X104.611 Y95.622 E7.20602
G1 X105.465 Y95.277 E7.23666
G1 X106.345 Y95.007 E7.26727
G1 X107.245 Y94.815 E7.29788
G1 X108.159 Y94.701 E7.32851
G1 X108.712 Y94.671 E7.34693
G1 X109.33 Y94.658 E7.36749
G1 X125.293 Y94.658 E7.89842
G1 X126.143 Y94.669 E7.9267
G1 X127.062 Y94.722 E7.95732
G1 X127.973 Y94.855 E7.98794
G1 X128.869 Y95.066 E8.01855
G1 X129.743 Y95.354 E8.04916
G1 X130.59 Y95.717 E8.07981
G1 X131.401 Y96.152 E8.11042
G1 X132.171 Y96.656 E8.14103
G1 X132.895 Y97.225 E8.17165
G1 X133.567 Y97.855 E8.20229
G1 X134.182 Y98.54 E8.23291
G1 X134.735 Y99.276 E8.26353
G1 X135.222 Y100.057 E8.29414
G1 X135.639 Y100.878 E8.32477
G1 X135.984 Y101.732 E8.3554
G1 X136.253 Y102.612 E8.38601
G1 X136.445 Y103.513 E8.41665
G1 X136.558 Y104.426 E8.44725
G1 X136.596 Y105.29 E8.47601
G1 X136.599 Y155.153 E10.13446
G1 X136.59 Y155.88 E10.15864
G1 X136.539 Y156.799 E10.18926
G1 X136.408 Y157.711 E10.2199
G1 X136.198 Y158.607 E10.25051
G1 X135.912 Y159.482 E10.28113
G1 X135.551 Y160.329 E10.31175
G1 X135.117 Y161.141 E10.34237
G1 X134.615 Y161.913 E10.373
G1 X134.047 Y162.638 E10.40363
G1 X133.419 Y163.311 E10.43425
G1 X132.735 Y163.927 E10.46487
G1 X132 Y164.481 E10.49548
G1 X131.22 Y164.97 E10.5261
G1 X130.4 Y165.389 E10.55673
G1 X129.547 Y165.735 E10.58734
G1 X128.667 Y166.006 E10.61797
G1 X127.767 Y166.199 E10.64858
G1 X126.853 Y166.314 E10.67922
G1 X126.288 Y166.345 E10.69804
G1 X125.67 Y166.358 E10.7186
G1 X109.57 Y166.357 E11.25409
G1 X108.872 Y166.348 E11.27731
G1 X107.953 Y166.296 E11.30792
G1 X107.042 Y166.165 E11.33853
G1 X106.146 Y165.955 E11.36914
G1 X105.271 Y165.668 E11.39977
G1 X104.424 Y165.306 E11.43041
G1 X103.612 Y164.872 E11.46103
G1 X102.841 Y164.37 E11.49163
G1 X102.116 Y163.802 E11.52226
G1 X101.443 Y163.173 E11.5529
G1 X100.828 Y162.489 E11.58349
G1 X100.274 Y161.754 E11.61411
G1 X99.786 Y160.973 E11.64474
G1 X99.367 Y160.153 E11.67536
G1 X99.021 Y159.3 E11.70598
G1 X98.751 Y158.42 E11.7366
G1 X98.558 Y157.519 E11.76724
G1 X98.444 Y156.606 E11.79785
G1 X98.413 Y156.035 E11.81687
G1 X98.4 Y155.416 E11.83746
G1 X98.401 Y105.789 E13.48806
G0 F6000 X98.801 Y105.794
G1 F1200 X98.81 Y105.129 E13.51018
G1 X98.862 Y104.227 E13.54023
G1 X98.994 Y103.334 E13.57025
G1 X99.204 Y102.456 E13.60028
G1 X99.491 Y101.599 E13.63034
G1 X99.853 Y100.772 E13.66036
G1 X100.286 Y99.98 E13.69039
G1 X100.788 Y99.229 E13.72043
G1 X101.355 Y98.525 E13.7505
G1 X101.981 Y97.875 E13.78051
G1 X102.662 Y97.282 E13.81055
G1 X103.394 Y96.752 E13.8406
G1 X104.169 Y96.289 E13.87063
G1 X104.982 Y95.896 E13.90066
G1 X105.827 Y95.576 E13.93072
G1 X106.696 Y95.333 E13.96073
G1 X107.584 Y95.167 E13.99077
G1 X108.723 Y95.071 E14.02879
G1 X109.33 Y95.058 E14.04899
G1 X125.293 Y95.058 E14.57992
G1 X126.137 Y95.069 E14.60799
G1 X127.039 Y95.122 E14.63804
G1 X127.932 Y95.254 E14.66807
G1 X128.81 Y95.465 E14.6981
G1 X129.666 Y95.753 E14.72814
G1 X130.493 Y96.115 E14.75817
G1 X131.285 Y96.55 E14.78822
G1 X132.036 Y97.052 E14.81827
G1 X132.739 Y97.619 E14.8483
G1 X133.389 Y98.246 E14.87834
G1 X133.981 Y98.928 E14.90838
G1 X134.511 Y99.659 E14.93841
G1 X134.973 Y100.435 E14.96845
G1 X135.366 Y101.248 E14.99848
G1 X135.684 Y102.093 E15.02851
G1 X135.927 Y102.963 E15.05856
G1 X136.092 Y103.851 E15.0886
G1 X136.187 Y104.981 E15.12631
G1 X136.2 Y105.588 E15.14651
G1 X136.199 Y155.148 E16.79488
G1 X136.19 Y155.875 E16.81906
G1 X136.139 Y156.777 E16.84911
G1 X136.008 Y157.671 E16.87916
G1 X135.799 Y158.549 E16.90918
G1 X135.513 Y159.406 E16.93923
G1 X135.152 Y160.234 E16.96927
G1 X134.72 Y161.026 E16.99928
G1 X134.219 Y161.778 E17.02933
G1 X133.653 Y162.482 E17.05938
G1 X133.028 Y163.133 E17.08939
G1 X132.347 Y163.727 E17.11945
G1 X131.616 Y164.258 E17.1495
G1 X130.842 Y164.722 E17.17951
G1 X130.029 Y165.116 E17.20956
G1 X129.185 Y165.436 E17.23958
G1 X128.315 Y165.681 E17.26964
G1 X127.428 Y165.847 E17.29966
G1 X126.277 Y165.945 E17.33808
G1 X125.67 Y165.958 E17.35827
G1 X109.575 Y165.957 E17.8936
G1 X108.877 Y165.948 E17.91681
G1 X107.976 Y165.897 E17.94683
G1 X107.082 Y165.765 E17.97688
G1 X106.204 Y165.556 E18.0069
G1 X105.347 Y165.269 E18.03696
G1 X104.52 Y164.908 E18.06698
G1 X103.727 Y164.475 E18.09703
G1 X102.976 Y163.974 E18.12705
G1 X102.272 Y163.408 E18.1571
G1 X101.621 Y162.782 E18.18714
G1 X101.028 Y162.101 E18.21717
G1 X100.498 Y161.37 E18.2472
G1 X100.034 Y160.595 E18.27724
G1 X99.64 Y159.782 E18.30729
G1 X99.32 Y158.938 E18.33731
G1 X99.076 Y158.068 E18.36737
G1 X98.91 Y157.18 E18.39741
G1 X98.813 Y156.025 E18.43596
G1 X98.8 Y155.416 E18.45622
G1 X98.801 Y105.794 E20.10666
G1 F2700 E15.10666
;MESH:middle-trap.stl
G0 F6000 X108.335 Y105.794
G0 X109.43 Y105.794
G0 X109.58 Y129.178
G1 F2700 E20.10666
G0 F6000 X109.2 Y129.558
;TYPE:WALL-OUTER
G1 F1200 X125.8 Y129.558 E20.65878
G1 X125.8 Y108.094 E21.37267
G1 X125.8 Y105.458 E21.46035
G1 X115.899 Y105.459 E21.78966
G1 X109.2 Y105.458 E22.01246
G1 X109.2 Y129.558 E22.81403
G1 F2700 E17.81403
G0 F6000 X109.58 Y129.178
G0 X115.72 Y128.968
G0 X115.371 Y128.588
G1 F2700 E22.81403
G0 F6000 X115.725 Y128.384
G1 F1200 X114.121 Y125.608 E22.92067
G1 X114.102 Y125.455 E22.9258
G1 X114.121 Y125.407 E22.92751
G1 X115.724 Y122.634 E23.03405
G1 X115.421 Y122.519 E23.04483
G1 X115.146 Y122.395 E23.05486
G1 X114.874 Y122.255 E23.06503
G1 X114.612 Y122.101 E23.07514
G1 X114.357 Y121.932 E23.08532
G1 X114.116 Y121.748 E23.0954
G1 X113.882 Y121.552 E23.10555
G1 X113.662 Y121.343 E23.11565
G1 X113.454 Y121.123 E23.12572
G1 X113.256 Y120.89 E23.13589
G1 X113.076 Y120.646 E23.14597
G1 X112.907 Y120.395 E23.15603
G1 X112.75 Y120.13 E23.16628
G1 X112.61 Y119.86 E23.1764
G1 X112.489 Y119.583 E23.18645
G1 X112.379 Y119.298 E23.19661
G1 X112.285 Y119.007 E23.20678
G1 X112.206 Y118.7 E23.21732
G1 X112.152 Y118.416 E23.22694
G1 X112.108 Y118.114 E23.23709
G1 X112.083 Y117.809 E23.24727
G1 X112.075 Y117.507 E23.25732
G1 X112.083 Y117.201 E23.2675
G1 X112.109 Y116.897 E23.27765
G1 X112.152 Y116.599 E23.28766
G1 X112.211 Y116.296 E23.29793
G1 X112.288 Y116.005 E23.30794
G1 X112.381 Y115.714 E23.3181
G1 X112.489 Y115.431 E23.32817
G1 X112.613 Y115.152 E23.33833
G1 X112.753 Y114.88 E23.3485
G1 X112.907 Y114.62 E23.35855
G1 X113.077 Y114.364 E23.36878
G1 X113.26 Y114.124 E23.37881
G1 X113.456 Y113.891 E23.38894
G1 X113.665 Y113.668 E23.39911
G1 X113.873 Y113.473 E23.40859
G1 X114.118 Y113.264 E23.4193
G1 X114.362 Y113.082 E23.42942
G1 X114.613 Y112.914 E23.43947
G1 X114.878 Y112.758 E23.4497
G1 X115.149 Y112.618 E23.45984
G1 X115.425 Y112.495 E23.46989
G1 X115.724 Y112.382 E23.48052
G1 X114.121 Y109.609 E23.58706
G1 X114.101 Y109.455 E23.59222
G1 X114.121 Y109.407 E23.59395
G1 X115.725 Y106.632 E23.70056
G1 X115.899 Y106.533 E23.70722
G1 X119.101 Y106.533 E23.81371
G1 X119.275 Y106.632 E23.82037
G1 X120.879 Y109.408 E23.92701
G1 X120.899 Y109.561 E23.93214
G1 X120.879 Y109.609 E23.93387
G1 X119.276 Y112.382 E24.0404
G1 X119.579 Y112.497 E24.05118
G1 X119.858 Y112.621 E24.06133
G1 X120.129 Y112.763 E24.07151
G1 X120.39 Y112.917 E24.08159
G1 X120.645 Y113.086 E24.09177
G1 X120.884 Y113.269 E24.10178
G1 X121.12 Y113.465 E24.11198
G1 X121.341 Y113.674 E24.1221
G1 X121.547 Y113.895 E24.13215
G1 X121.745 Y114.128 E24.14232
G1 X121.927 Y114.372 E24.15244
G1 X122.095 Y114.623 E24.16249
G1 X122.25 Y114.887 E24.17267
G1 X122.39 Y115.158 E24.18281
G1 X122.513 Y115.435 E24.19289
G1 X122.622 Y115.72 E24.20304
G1 X122.716 Y116.011 E24.21321
G1 X122.795 Y116.319 E24.22379
G1 X122.849 Y116.603 E24.2334
G1 X122.892 Y116.904 E24.24352
G1 X122.917 Y117.209 E24.2537
G1 X122.925 Y117.512 E24.26378
G1 X122.917 Y117.818 E24.27396
G1 X122.891 Y118.122 E24.28411
G1 X122.848 Y118.421 E24.29415
G1 X122.788 Y118.724 E24.30443
G1 X122.711 Y119.013 E24.31437
G1 X122.618 Y119.305 E24.32457
G1 X122.51 Y119.587 E24.33461
G1 X122.386 Y119.867 E24.3448
G1 X122.245 Y120.137 E24.35493
G1 X122.091 Y120.398 E24.36501
G1 X121.921 Y120.653 E24.3752
G1 X121.738 Y120.895 E24.38529
G1 X121.542 Y121.129 E24.39544
G1 X121.333 Y121.348 E24.40551
G1 X121.112 Y121.556 E24.41561
G1 X120.879 Y121.754 E24.42578
G1 X120.635 Y121.936 E24.4359
G1 X120.383 Y122.104 E24.44597
G1 X120.119 Y122.26 E24.45617
G1 X119.848 Y122.398 E24.46629
G1 X119.572 Y122.522 E24.47635
G1 X119.276 Y122.634 E24.48688
G1 X120.879 Y125.407 E24.59341
G1 X120.899 Y125.561 E24.59857
G1 X120.879 Y125.609 E24.6003
G1 X119.275 Y128.384 E24.70691
G1 X119.101 Y128.483 E24.71357
G1 X115.899 Y128.483 E24.82007
G1 X115.725 Y128.384 E24.82673
G0 F6000 X115.899 Y129.021
;TYPE:WALL-INNER
G1 F710.1 X119.101 Y129.021 E25.00671
G1 F703.8 X119.229 Y129.016 E25.01397
G0 F6000 X119.952 Y129.157
G1 F1200 X125.4 Y129.158 E25.19517
G1 X125.4 Y108.094 E25.89577
G1 X125.4 Y105.858 E25.97014
G1 X119.952 Y105.859 E26.15134
G1 F1078.7 X119.669 Y105.904 E26.16194
G1 F893.9 X119.385 Y105.95 E26.17479
G1 F764.3 X119.101 Y105.996 E26.18981
G1 F793.4 X119.361 Y106.214 E26.20688
G1 F1025.6 X119.621 Y106.432 E26.22008
G1 F1200 X121.226 Y109.208 E26.32673
G1 X121.306 Y109.509 E26.33709
G1 X121.225 Y109.809 E26.34743
G1 X119.854 Y112.181 E26.43855
G1 X120.306 Y112.404 E26.45531
G1 X120.612 Y112.583 E26.46711
G1 X120.856 Y112.745 E26.47685
G1 X121.14 Y112.961 E26.48871
G1 X121.394 Y113.174 E26.49974
G1 X121.633 Y113.401 E26.5107
G1 X121.851 Y113.635 E26.52134
G1 X122.066 Y113.889 E26.53241
G1 X122.259 Y114.15 E26.5432
G1 X122.439 Y114.419 E26.55397
G1 X122.606 Y114.703 E26.56493
G1 X122.756 Y114.995 E26.57585
G1 X122.887 Y115.292 E26.58664
G1 X123.002 Y115.596 E26.59745
G1 X123.093 Y115.874 E26.60718
G1 X123.18 Y116.207 E26.61863
G1 X123.245 Y116.547 E26.63014
G1 X123.287 Y116.838 E26.63992
G1 X123.316 Y117.163 E26.65077
G1 X123.325 Y117.523 E26.66275
G1 X123.316 Y117.852 E26.6737
G1 X123.287 Y118.178 E26.68458
G1 X123.24 Y118.498 E26.69534
G1 X123.174 Y118.826 E26.70647
G1 X123.101 Y119.106 E26.71609
G1 X122.992 Y119.449 E26.72806
G1 X122.876 Y119.748 E26.73873
G1 X122.758 Y120.016 E26.74847
G1 X122.59 Y120.339 E26.76058
G1 X122.424 Y120.62 E26.77143
G1 X122.24 Y120.895 E26.78244
G1 X122.045 Y121.151 E26.79314
G1 X121.832 Y121.404 E26.80414
G1 X121.607 Y121.64 E26.81499
G1 X121.372 Y121.86 E26.82569
G1 X121.118 Y122.075 E26.83676
G1 X120.857 Y122.268 E26.84756
G1 X120.587 Y122.448 E26.85835
G1 X120.302 Y122.616 E26.86936
G1 X120.012 Y122.764 E26.88018
G1 X119.853 Y122.834 E26.88596
G1 X121.225 Y125.207 E26.97713
G1 X121.306 Y125.508 E26.9875
G1 X121.226 Y125.808 E26.99783
G1 X119.621 Y128.584 E27.10448
G1 F1016.9 X119.425 Y128.8 E27.11592
G1 F779.2 X119.229 Y129.016 E27.13086
G1 X119.59 Y129.086 E27.1497
G1 F1016.9 X119.952 Y129.157 E27.16418
G0 F6000 X119.952 Y129.148
G0 X115.048 Y129.148
G0 X115.048 Y129.157
G1 F1076.2 X115.331 Y129.112 E27.1748
G1 F892.2 X115.615 Y129.067 E27.18767
G1 F761.9 X115.899 Y129.021 E27.20274
G1 F790.8 X115.639 Y128.803 E27.21986
G1 F1023.5 X115.379 Y128.584 E27.23312
G1 F1200 X113.774 Y125.808 E27.33977
G1 X113.695 Y125.508 E27.35009
G1 X113.775 Y125.207 E27.36045
G1 X115.147 Y122.835 E27.45159
G1 X114.7 Y122.616 E27.46814
G1 X114.419 Y122.452 E27.47897
G1 X114.146 Y122.272 E27.48984
G1 X113.881 Y122.072 E27.50088
G1 X113.607 Y121.843 E27.51276
G1 X113.371 Y121.617 E27.52363
G1 X113.15 Y121.383 E27.53434
G1 X112.96 Y121.161 E27.54405
G1 X112.759 Y120.892 E27.55522
G1 X112.563 Y120.599 E27.56695
G1 X112.394 Y120.314 E27.57797
G1 X112.244 Y120.021 E27.58892
G1 X112.116 Y119.727 E27.59958
G1 X111.999 Y119.422 E27.61045
G1 X111.897 Y119.107 E27.62146
G1 X111.813 Y118.776 E27.63282
G1 X111.756 Y118.473 E27.64307
G1 X111.713 Y118.182 E27.65285
G1 X111.683 Y117.82 E27.66494
G1 X111.675 Y117.496 E27.67572
G1 X111.684 Y117.167 E27.68666
G1 X111.713 Y116.841 E27.69755
G1 X111.759 Y116.523 E27.70823
G1 X111.824 Y116.194 E27.71939
G1 X111.906 Y115.884 E27.73005
G1 X112.007 Y115.571 E27.74099
G1 X112.123 Y115.27 E27.75172
G1 X112.257 Y114.969 E27.76268
G1 X112.409 Y114.677 E27.77363
G1 X112.574 Y114.398 E27.78441
G1 X112.759 Y114.122 E27.79546
G1 X112.953 Y113.868 E27.80609
G1 X113.164 Y113.617 E27.817
G1 X113.392 Y113.376 E27.82803
G1 X113.625 Y113.159 E27.83862
G1 X113.847 Y112.969 E27.84834
G1 X114.115 Y112.767 E27.8595
G1 X114.409 Y112.57 E27.87127
G1 X114.694 Y112.402 E27.88228
G1 X114.987 Y112.252 E27.89323
G1 X115.146 Y112.181 E27.89902
G1 X113.775 Y109.809 E27.99014
G1 X113.695 Y109.509 E28.00047
