;FLAVOR:Marlin
;TIME:584
;Filament used: 0.352454m
;Layer height: 0.16
;MINX:91.521
;MINY:87.443
;MINZ:0.2
;MAXX:143.48
;MAXY:142.478
;MAXZ:5
;Generated with Cura_SteamEngine 5.0.0
M140 S50
M105
M190 S50
M104 S200
M105
M109 S200
M82 ;absolute extrusion mode
; Ender 3 Custom Start G-code
G92 E0 ; Reset Extruder
G28 ; Home all axes
G1 Z2.0 F3000 ; Move Z Axis up little to prevent scratching of Heat Bed
G1 X0.1 Y20 Z0.3 F5000.0 ; Move to start position
G1 X0.1 Y200.0 Z0.3 F1500.0 E15 ; Draw the first line
G1 X0.4 Y200.0 Z0.3 F5000.0 ; Move to side a little
G1 X0.4 Y20 Z0.3 F1500.0 E30 ; Draw the second line
G92 E0 ; Reset Extruder
G1 Z2.0 F3000 ; Move Z Axis up little to prevent scratching of Heat Bed
G1 X5 Y20 Z0.3 F5000.0 ; Move over to prevent blob squish
G92 E0
G92 E0
G1 F2700 E-5
;LAYER_COUNT:26
;LAYER:0
M107
G0 F6000 X96.461 Y97.664 Z0.2
G0 X91.542 Y109.158
;TYPE:SKIRT
G1 F2700 E0
G1 F1200 X91.564 Y108.22 E0.03121
G1 X91.623 Y107.601 E0.05189
G1 X91.694 Y107.028 E0.07109
G1 X91.798 Y106.361 E0.09354
G1 X91.849 Y106.088 E0.10278
G1 X92.036 Y105.264 E0.13088
G1 X92.123 Y104.939 E0.14207
G1 X92.332 Y104.249 E0.16605
G1 X92.465 Y103.857 E0.17982
G1 X92.751 Y103.105 E0.20658
G1 X92.872 Y102.819 E0.21691
G1 X93.193 Y102.129 E0.24222
G1 X93.437 Y101.648 E0.26016
G1 X93.897 Y100.83 E0.29137
G1 X94.199 Y100.368 E0.30973
G1 X94.544 Y99.869 E0.32991
G1 X95.11 Y99.121 E0.36111
G1 X95.419 Y98.762 E0.37686
G1 X95.819 Y98.318 E0.39674
G1 X96.461 Y97.664 E0.42722
G1 X96.824 Y97.323 E0.44378
G1 X97.534 Y96.71 E0.47498
G1 X97.978 Y96.377 E0.49344
G1 X98.394 Y96.081 E0.51042
G1 X99.017 Y95.669 E0.53527
G1 X99.294 Y95.499 E0.54608
G1 X99.925 Y95.14 E0.57022
G1 X101.548 Y94.286 E0.63122
G1 X103.824 Y93.048 E0.71739
G1 X106.015 Y91.775 E0.80167
G1 X108.237 Y90.398 E0.88862
G1 X109.163 Y89.806 E0.92517
G1 X109.815 Y89.421 E0.95036
G1 X110.088 Y89.272 E0.9607
G1 X110.832 Y88.901 E0.98835
G1 X111.574 Y88.588 E1.01514
G1 X111.959 Y88.442 E1.02883
G1 X112.688 Y88.194 E1.05444
G1 X113.08 Y88.076 E1.06806
G1 X113.802 Y87.885 E1.0929
G1 X114.126 Y87.811 E1.10395
G1 X114.855 Y87.67 E1.12865
G1 X115.196 Y87.616 E1.14013
G1 X115.958 Y87.523 E1.16567
G1 X116.324 Y87.491 E1.17789
G1 X117.124 Y87.45 E1.20453
G1 X117.612 Y87.443 E1.22076
G1 X118.55 Y87.47 E1.25197
G1 X119.096 Y87.522 E1.27021
G1 X119.623 Y87.586 E1.28787
G1 X120.354 Y87.7 E1.31248
G1 X120.706 Y87.767 E1.3244
G1 X121.561 Y87.965 E1.35359
G1 X122.071 Y88.105 E1.37118
G1 X122.964 Y88.392 E1.40237
G1 X123.45 Y88.584 E1.41975
G1 X124.059 Y88.842 E1.44175
G1 X124.906 Y89.245 E1.47295
G1 X125.394 Y89.519 E1.49156
G1 X126.329 Y90.082 E1.52786
G1 X126.95 Y90.48 E1.5524
G1 X129.122 Y91.83 E1.63746
G1 X131.32 Y93.11 E1.72205
G1 X133.517 Y94.308 E1.80528
G1 X134.73 Y94.941 E1.85079
G1 X135.246 Y95.229 E1.87045
G1 X135.847 Y95.585 E1.89368
G1 X136.601 Y96.074 E1.92357
G1 X136.951 Y96.322 E1.93784
G1 X137.982 Y97.15 E1.98182
G1 X138.327 Y97.463 E1.99731
G1 X138.931 Y98.055 E2.02544
G1 X139.326 Y98.473 E2.04457
G1 X139.941 Y99.181 E2.07576
G1 X140.278 Y99.628 E2.09438
G1 X140.572 Y100.039 E2.11119
G1 X140.994 Y100.676 E2.1366
G1 X141.165 Y100.954 E2.14746
G1 X141.523 Y101.58 E2.17144
G1 X141.692 Y101.9 E2.18348
G1 X142.041 Y102.623 E2.21018
G1 X142.179 Y102.938 E2.22162
G1 X142.465 Y103.659 E2.24742
G1 X142.64 Y104.15 E2.26475
G1 X142.916 Y105.046 E2.29594
G1 X143.043 Y105.583 E2.31429
G1 X143.149 Y106.088 E2.33145
G1 X143.275 Y106.802 E2.35557
G1 X143.318 Y107.105 E2.36575
G1 X143.4 Y107.883 E2.39177
G1 X143.425 Y108.24 E2.40367
G1 X143.452 Y108.989 E2.4286
G1 X143.446 Y109.977 E2.46146
G1 X143.421 Y110.646 E2.48372
G1 X143.391 Y111.207 E2.50241
G1 X143.326 Y113.694 E2.58516
G1 X143.333 Y116.226 E2.66937
G1 X143.409 Y118.753 E2.75346
G1 X143.463 Y119.731 E2.78604
G1 X143.479 Y120.315 E2.80547
G1 X143.48 Y120.948 E2.82652
G1 X143.447 Y121.821 E2.85558
G1 X143.409 Y122.308 E2.87182
G1 X143.296 Y123.239 E2.90302
G1 X143.21 Y123.7 E2.91861
G1 X143.101 Y124.222 E2.93635
G1 X142.893 Y125.056 E2.96494
G1 X142.75 Y125.546 E2.98192
G1 X142.449 Y126.434 E3.0131
G1 X142.244 Y126.927 E3.03086
G1 X141.979 Y127.524 E3.05258
G1 X141.562 Y128.364 E3.08378
G1 X141.283 Y128.842 E3.10218
G1 X141.005 Y129.292 E3.11978
G1 X140.589 Y129.917 E3.14475
G1 X140.339 Y130.266 E3.15903
G1 X139.847 Y130.902 E3.18577
G1 X139.622 Y131.172 E3.19746
G1 X139.173 Y131.679 E3.21999
G1 X138.543 Y132.306 E3.24955
G1 X138.169 Y132.649 E3.26643
G1 X137.554 Y133.172 E3.29328
G1 X137.144 Y133.496 E3.31066
G1 X136.384 Y134.046 E3.34186
G1 X135.909 Y134.343 E3.36049
G1 X135.495 Y134.587 E3.37648
G1 X134.997 Y134.863 E3.39542
G1 X132.623 Y136.101 E3.48447
G1 X130.436 Y137.322 E3.56777
G1 X128.276 Y138.607 E3.65137
G1 X127.514 Y139.094 E3.68145
G1 X125.742 Y140.188 E3.75071
G1 X125.092 Y140.559 E3.7756
G1 X124.796 Y140.715 E3.78673
G1 X124.088 Y141.056 E3.81287
G1 X123.703 Y141.225 E3.82685
G1 X123.022 Y141.498 E3.85126
G1 X122.809 Y141.575 E3.85879
G1 X122.045 Y141.82 E3.88547
G1 X121.465 Y141.983 E3.90551
G1 X120.276 Y142.247 E3.94602
G1 X119.948 Y142.301 E3.95708
G1 X118.899 Y142.422 E3.9922
G1 X118.453 Y142.452 E4.00707
G1 X117.741 Y142.477 E4.03076
G1 X117.311 Y142.478 E4.04507
G1 X116.429 Y142.445 E4.07442
G1 X115.942 Y142.407 E4.09067
G1 X115.011 Y142.294 E4.12186
G1 X114.55 Y142.208 E4.13746
G1 X114.028 Y142.099 E4.15519
G1 X113.177 Y141.885 E4.18438
G1 X112.69 Y141.742 E4.20126
G1 X111.802 Y141.44 E4.23246
G1 X111.337 Y141.247 E4.2492
G1 X110.736 Y140.981 E4.27106
G1 X109.895 Y140.565 E4.30227
G1 X109.41 Y140.282 E4.32095
G1 X107.87 Y139.328 E4.3812
G1 X107.558 Y139.125 E4.39358
G1 X105.438 Y137.831 E4.47619
G1 X103.251 Y136.581 E4.55997
G1 X99.971 Y134.847 E4.68337
G1 X99.486 Y134.575 E4.70186
G1 X99.16 Y134.381 E4.71448
G1 X98.578 Y134.009 E4.73746
G1 X98.36 Y133.86 E4.74624
G1 X97.709 Y133.379 E4.77316
G1 X97.398 Y133.131 E4.78639
G1 X96.823 Y132.64 E4.81154
G1 X96.559 Y132.398 E4.82345
G1 X95.971 Y131.816 E4.85097
G1 X95.605 Y131.426 E4.86876
G1 X94.993 Y130.716 E4.89993
G1 X94.679 Y130.298 E4.91732
G1 X94.438 Y129.961 E4.9311
G1 X94.022 Y129.335 E4.9561
G1 X93.792 Y128.962 E4.97067
G1 X93.388 Y128.249 E4.99793
G1 X93.144 Y127.778 E5.01557
G1 X92.748 Y126.927 E5.04679
G1 X92.551 Y126.416 E5.06501
G1 X92.415 Y126.035 E5.07846
G1 X92.202 Y125.372 E5.10163
G1 X92.043 Y124.818 E5.1208
G1 X91.823 Y123.906 E5.152
G1 X91.717 Y123.271 E5.17341
G1 X91.637 Y122.685 E5.19308
G1 X91.561 Y121.932 E5.21825
G1 X91.546 Y121.708 E5.22572
G1 X91.521 Y120.904 E5.25248
G1 X91.526 Y120.111 E5.27885
G1 X91.542 Y119.579 E5.29655
G1 X91.613 Y118.286 E5.33962
G1 X91.677 Y115.813 E5.4219
G1 X91.67 Y113.291 E5.50579
G1 X91.558 Y110.021 E5.61461
G1 X91.542 Y109.158 E5.64332
G0 F6000 X91.942 Y109.15
G1 F1200 X91.965 Y108.23 E5.67393
G1 X92.02 Y107.651 E5.69327
G1 X92.091 Y107.078 E5.71248
G1 X92.191 Y106.434 E5.73415
G1 X92.242 Y106.161 E5.74339
G1 X92.423 Y105.367 E5.77048
G1 X92.51 Y105.042 E5.78167
G1 X92.711 Y104.377 E5.80477
G1 X92.844 Y103.985 E5.81854
G1 X93.12 Y103.261 E5.84431
G1 X93.241 Y102.975 E5.85464
G1 X93.55 Y102.31 E5.87903
G1 X93.794 Y101.829 E5.89697
G1 X94.246 Y101.026 E5.92762
G1 X94.528 Y100.596 E5.94472
G1 X94.873 Y100.097 E5.9649
G1 X95.717 Y99.03 E6.01014
G1 X96.117 Y98.586 E6.03002
G1 X96.734 Y97.955 E6.05937
G1 X97.097 Y97.614 E6.07594
G1 X97.795 Y97.014 E6.10655
G1 X98.21 Y96.703 E6.1238
G1 X98.626 Y96.407 E6.14078
G1 X99.226 Y96.01 E6.16471
G1 X99.503 Y95.84 E6.17552
G1 X100.112 Y95.494 E6.19882
G1 X101.684 Y94.667 E6.2579
G1 X104.037 Y93.387 E6.34699
G1 X106.221 Y92.118 E6.431
G1 X108.424 Y90.752 E6.51721
G1 X109.378 Y90.143 E6.55486
G1 X110.007 Y89.772 E6.57915
G1 X110.28 Y89.623 E6.58949
G1 X111 Y89.263 E6.61627
G1 X111.715 Y88.962 E6.64207
G1 X112.1 Y88.816 E6.65576
G1 X112.804 Y88.577 E6.68049
G1 X113.196 Y88.459 E6.69411
G1 X113.891 Y88.275 E6.71802
G1 X114.215 Y88.201 E6.72907
G1 X114.917 Y88.065 E6.75286
G1 X115.258 Y88.011 E6.76434
G1 X115.993 Y87.921 E6.78897
G1 X116.359 Y87.889 E6.80119
G1 X117.13 Y87.85 E6.82686
G1 X117.618 Y87.843 E6.8431
G1 X118.538 Y87.87 E6.87371
G1 X119.048 Y87.919 E6.89075
G1 X119.575 Y87.983 E6.90841
G1 X120.279 Y88.093 E6.93211
G1 X120.631 Y88.16 E6.94402
G1 X121.455 Y88.351 E6.97216
G1 X121.965 Y88.491 E6.98975
G1 X122.841 Y88.773 E7.02035
G1 X123.294 Y88.953 E7.03657
G1 X123.903 Y89.211 E7.05857
G1 X124.734 Y89.606 E7.08917
G1 X125.189 Y89.862 E7.10653
G1 X126.113 Y90.419 E7.14242
G1 X126.673 Y90.778 E7.16454
G1 X128.941 Y92.188 E7.25336
G1 X131.107 Y93.449 E7.33673
G1 X133.385 Y94.691 E7.42302
G1 X134.544 Y95.296 E7.46651
G1 X135.042 Y95.573 E7.48546
G1 X135.643 Y95.929 E7.50869
G1 X136.369 Y96.4 E7.53748
G1 X136.719 Y96.648 E7.55174
G1 X137.713 Y97.446 E7.59414
G1 X138.058 Y97.759 E7.60963
G1 X138.64 Y98.33 E7.63675
G1 X139.035 Y98.748 E7.65588
G1 X139.638 Y99.444 E7.68651
G1 X139.952 Y99.861 E7.70387
G1 X140.246 Y100.272 E7.72068
G1 X140.654 Y100.885 E7.74517
G1 X140.825 Y101.163 E7.75602
G1 X141.169 Y101.767 E7.77914
G1 X141.338 Y102.087 E7.79118
G1 X141.674 Y102.783 E7.81688
G1 X141.812 Y103.098 E7.82832
G1 X142.088 Y103.793 E7.85319
G1 X142.263 Y104.284 E7.87053
G1 X142.534 Y105.164 E7.90116
G1 X142.652 Y105.666 E7.91831
G1 X142.758 Y106.171 E7.93547
G1 X142.879 Y106.859 E7.9587
G1 X142.922 Y107.162 E7.96888
G1 X143.001 Y107.911 E7.99393
G1 X143.026 Y108.268 E8.00584
G1 X143.052 Y108.99 E8.02987
G1 X143.047 Y109.963 E8.06223
G1 X143.021 Y110.625 E8.08426
G1 X142.991 Y111.176 E8.10262
G1 X142.926 Y113.685 E8.18609
G1 X142.933 Y116.239 E8.27104
G1 X143.01 Y118.788 E8.35586
G1 X143.063 Y119.753 E8.388
G1 X143.079 Y120.315 E8.4067
G1 X143.08 Y120.948 E8.42776
G1 X143.048 Y121.79 E8.45578
G1 X143.01 Y122.277 E8.47203
G1 X142.818 Y123.619 E8.51712
G1 X142.709 Y124.141 E8.53486
G1 X142.509 Y124.944 E8.56238
G1 X142.366 Y125.434 E8.57936
G1 X142.069 Y126.305 E8.60996
G1 X141.878 Y126.765 E8.62653
G1 X141.613 Y127.362 E8.64826
G1 X141.204 Y128.186 E8.67885
G1 X140.943 Y128.632 E8.69604
G1 X140.665 Y129.082 E8.71363
G1 X140.264 Y129.684 E8.73769
G1 X140.014 Y130.033 E8.75197
G1 X139.54 Y130.646 E8.77774
G1 X139.315 Y130.916 E8.78943
G1 X138.88 Y131.407 E8.81125
G1 X138.273 Y132.011 E8.83973
G1 X137.899 Y132.354 E8.85661
G1 X137.306 Y132.859 E8.88251
G1 X136.896 Y133.183 E8.8999
G1 X136.15 Y133.722 E8.93051
G1 X135.706 Y133.998 E8.94789
G1 X135.292 Y134.242 E8.96388
G1 X134.812 Y134.509 E8.98215
G1 X132.423 Y135.755 E9.07176
G1 X130.215 Y136.987 E9.15586
G1 X128.07 Y138.264 E9.23889
G1 X127.303 Y138.754 E9.26916
G1 X125.531 Y139.848 E9.33842
G1 X124.905 Y140.205 E9.36239
G1 X124.609 Y140.361 E9.37352
G1 X123.928 Y140.69 E9.39868
G1 X123.543 Y140.859 E9.41266
G1 X122.886 Y141.122 E9.4362
G1 X122.673 Y141.199 E9.44373
G1 X121.937 Y141.435 E9.46944
G1 X121.357 Y141.598 E9.48948
G1 X120.211 Y141.852 E9.52852
G1 X119.883 Y141.906 E9.53957
G1 X118.872 Y142.023 E9.57343
G1 X118.426 Y142.053 E9.58829
G1 X117.74 Y142.077 E9.61112
G1 X117.31 Y142.078 E9.62543
G1 X116.46 Y142.046 E9.65372
G1 X115.973 Y142.008 E9.66996
G1 X114.631 Y141.816 E9.71505
G1 X114.109 Y141.707 E9.73279
G1 X113.29 Y141.502 E9.76087
G1 X112.803 Y141.359 E9.77775
G1 X111.931 Y141.061 E9.8084
G1 X111.499 Y140.881 E9.82397
G1 X110.898 Y140.615 E9.84583
G1 X110.073 Y140.206 E9.87645
G1 X109.62 Y139.942 E9.89389
G1 X108.088 Y138.993 E9.95383
G1 X107.778 Y138.792 E9.96612
G1 X105.613 Y137.47 E10.05049
G1 X103.468 Y136.244 E10.13266
G1 X100.158 Y134.494 E10.25719
G1 X99.69 Y134.231 E10.27505
G1 X99.364 Y134.037 E10.28767
G1 X98.804 Y133.679 E10.30977
G1 X98.586 Y133.53 E10.31856
G1 X97.958 Y133.067 E10.34451
G1 X97.647 Y132.819 E10.35774
G1 X97.093 Y132.345 E10.38199
G1 X96.829 Y132.103 E10.3939
G1 X96.263 Y131.543 E10.42038
G1 X95.897 Y131.153 E10.43817
G1 X95.296 Y130.455 E10.4688
G1 X94.763 Y129.728 E10.49879
G1 X94.362 Y129.126 E10.52285
G1 X94.132 Y128.753 E10.53742
G1 X93.743 Y128.065 E10.56371
G1 X93.499 Y127.594 E10.58135
G1 X93.111 Y126.759 E10.61197
G1 X92.928 Y126.282 E10.62897
G1 X92.792 Y125.901 E10.64242
G1 X92.586 Y125.261 E10.66478
G1 X92.427 Y124.707 E10.68395
G1 X92.212 Y123.812 E10.71457
G1 X92.113 Y123.217 E10.73463
G1 X92.033 Y122.631 E10.7543
G1 X91.96 Y121.905 E10.77857
G1 X91.945 Y121.681 E10.78604
G1 X91.921 Y120.906 E10.81183
G1 X91.926 Y120.113 E10.8382
G1 X91.942 Y119.601 E10.85524
G1 X92.012 Y118.319 E10.89794
G1 X92.077 Y115.822 E10.98102
G1 X92.07 Y113.307 E11.06467
G1 X91.958 Y110.013 E11.17429
G1 X91.942 Y109.15 E11.203
G0 F6000 X92.342 Y109.143
G1 F1200 X92.365 Y108.24 E11.23305
G1 X92.417 Y107.7 E11.25109
G1 X92.488 Y107.127 E11.27029
G1 X92.584 Y106.508 E11.29113
G1 X92.635 Y106.235 E11.30036
G1 X92.809 Y105.47 E11.32646
G1 X92.896 Y105.145 E11.33765
G1 X93.09 Y104.506 E11.35986
G1 X93.223 Y104.114 E11.37363
G1 X93.488 Y103.417 E11.39843
G1 X93.609 Y103.131 E11.40876
G1 X93.906 Y102.491 E11.43222
G1 X94.15 Y102.01 E11.45016
G1 X94.594 Y101.223 E11.48022
G1 X94.857 Y100.823 E11.49614
G1 X95.202 Y100.324 E11.51632
G1 X96.014 Y99.298 E11.55984
G1 X96.414 Y98.854 E11.57971
G1 X97.008 Y98.247 E11.60796
G1 X97.371 Y97.906 E11.62452
G1 X98.056 Y97.317 E11.65457
G1 X98.441 Y97.029 E11.67056
G1 X98.857 Y96.733 E11.68754
G1 X99.436 Y96.351 E11.71062
G1 X99.713 Y96.181 E11.72143
G1 X100.298 Y95.848 E11.74381
G1 X101.942 Y94.983 E11.8056
G1 X104.208 Y93.75 E11.8914
G1 X106.427 Y92.461 E11.97676
G1 X108.645 Y91.086 E12.06355
G1 X109.594 Y90.48 E12.101
G1 X110.198 Y90.123 E12.12434
G1 X110.471 Y89.974 E12.13468
G1 X111.169 Y89.626 E12.16062
G1 X111.857 Y89.336 E12.18546
G1 X112.242 Y89.19 E12.19915
G1 X112.919 Y88.96 E12.22293
G1 X113.311 Y88.842 E12.23655
G1 X113.98 Y88.665 E12.25957
G1 X114.304 Y88.591 E12.27062
G1 X114.98 Y88.461 E12.29352
G1 X115.321 Y88.407 E12.305
G1 X116.028 Y88.32 E12.32869
G1 X116.394 Y88.288 E12.34091
G1 X117.136 Y88.25 E12.36562
G1 X117.624 Y88.243 E12.38185
G1 X118.526 Y88.27 E12.41187
G1 X119 Y88.316 E12.42771
G1 X119.527 Y88.38 E12.44536
G1 X120.204 Y88.486 E12.46816
G1 X120.556 Y88.553 E12.48007
G1 X121.349 Y88.737 E12.50715
G1 X121.859 Y88.877 E12.52474
G1 X123.138 Y89.321 E12.56977
G1 X123.747 Y89.579 E12.59177
G1 X124.562 Y89.968 E12.6218
G1 X124.985 Y90.206 E12.63795
G1 X125.898 Y90.756 E12.6734
G1 X126.488 Y91.134 E12.6967
G1 X128.724 Y92.524 E12.78427
G1 X130.92 Y93.803 E12.8688
G1 X133.156 Y95.022 E12.9535
G1 X134.359 Y95.65 E12.99864
G1 X134.838 Y95.917 E13.01688
G1 X135.439 Y96.273 E13.04011
G1 X136.138 Y96.726 E13.06781
G1 X136.488 Y96.974 E13.08208
G1 X137.445 Y97.743 E13.12291
G1 X137.79 Y98.056 E13.13841
G1 X138.35 Y98.604 E13.16447
G1 X138.745 Y99.022 E13.18359
G1 X139.335 Y99.706 E13.21364
G1 X139.627 Y100.094 E13.22979
G1 X139.921 Y100.505 E13.2466
G1 X140.313 Y101.095 E13.27016
G1 X140.484 Y101.373 E13.28101
G1 X140.815 Y101.954 E13.30325
G1 X140.984 Y102.274 E13.31529
G1 X141.308 Y102.944 E13.34004
G1 X141.446 Y103.259 E13.35148
G1 X141.711 Y103.928 E13.37541
G1 X141.886 Y104.419 E13.39275
G1 X142.151 Y105.282 E13.42278
G1 X142.26 Y105.748 E13.43869
G1 X142.366 Y106.253 E13.45586
G1 X142.483 Y106.915 E13.47822
G1 X142.526 Y107.218 E13.48839
G1 X142.602 Y107.938 E13.51247
G1 X142.627 Y108.295 E13.52438
G1 X142.652 Y108.991 E13.54754
G1 X142.647 Y109.949 E13.57941
G1 X142.622 Y110.603 E13.60117
G1 X142.593 Y111.144 E13.61919
G1 X142.526 Y113.711 E13.7046
G1 X142.533 Y116.252 E13.78911
G1 X142.61 Y118.779 E13.8732
G1 X142.664 Y119.774 E13.90634
G1 X142.679 Y120.316 E13.92438
G1 X142.68 Y120.949 E13.94543
G1 X142.649 Y121.758 E13.97236
G1 X142.611 Y122.245 E13.98861
G1 X142.427 Y123.537 E14.03201
G1 X142.318 Y124.059 E14.04975
G1 X142.125 Y124.832 E14.07625
G1 X141.982 Y125.322 E14.09323
G1 X141.69 Y126.176 E14.12324
G1 X141.513 Y126.602 E14.13859
G1 X141.248 Y127.199 E14.16031
G1 X140.845 Y128.008 E14.19037
G1 X140.603 Y128.422 E14.20632
G1 X140.325 Y128.872 E14.22392
G1 X139.939 Y129.451 E14.24706
G1 X139.689 Y129.8 E14.26134
G1 X139.233 Y130.39 E14.28614
G1 X139.008 Y130.66 E14.29783
G1 X138.586 Y131.135 E14.31896
G1 X138.002 Y131.716 E14.34636
G1 X137.628 Y132.059 E14.36324
G1 X137.058 Y132.545 E14.38815
G1 X136.648 Y132.869 E14.40553
